!!!COM: Vivaldi, Antonio
!!!CDT: 1678/03/04/-1741/07/27/
!!!OTL: Concerto in D Minor, Op. 6, No. 6
!!!OMV: No. 1
!!!OMD: Allegro
**kern	**dynam	**kern	**kern	**dynam	**kern	**dynam	**kern	**dynam	**kern	**dynam	**kern	**dynam	**kern	**dynam
*staff8	*staff8	*staff7	*staff6	*staff6	*staff5	*staff5	*staff4	*staff4	*staff3	*staff3	*staff2	*staff2	*staff1	*staff1
*Icemba	*Icemba	*Icemba	*Icbass	*Icbass	*Icello	*Icello	*Iviola	*Iviola	*Ivioln	*Ivioln	*Ivioln	*Ivioln	*Ivioln	*Ivioln
*clefF4	*clefF4	*clefG2	*clefF4	*clefF4	*clefF4	*clefF4	*clefC3	*clefC3	*clefG2	*clefG2	*clefG2	*clefG2	*clefG2	*clefG2
*k[b-]	*k[b-]	*k[b-]	*k[b-]	*k[b-]	*k[b-]	*k[b-]	*k[b-]	*k[b-]	*k[b-]	*k[b-]	*k[b-]	*k[b-]	*k[b-]	*k[b-]
*met(C)	*met(C)	*met(C)	*met(C)	*met(C)	*met(C)	*met(C)	*met(C)	*met(C)	*met(C)	*met(C)	*met(C)	*met(C)	*met(C)	*met(C)
*M4/4	*M4/4	*M4/4	*M4/4	*M4/4	*M4/4	*M4/4	*M4/4	*M4/4	*M4/4	*M4/4	*M4/4	*M4/4	*M4/4	*M4/4
*MM120	*MM120	*MM120	*MM120	*MM120	*MM120	*MM120	*MM120	*MM120	*MM120	*MM120	*MM120	*MM120	*MM120	*MM120
=1-	=1-	=1-	=1-	=1-	=1-	=1-	=1-	=1-	=1-	=1-	=1-	=1-	=1-	=1-
8D\L	f	2r	8D\L	f	8D\L	f	8f\L	f	8dd\L	f	8dd\L	f	8dd\L	f
8E\	.	.	8E\	.	8E\	.	8g\	.	8a\	.	8a\	.	8a\	.
8F\	.	.	8F\	.	8F\	.	8a\	.	8dd\	.	8dd\	.	8dd\	.
8D\J	.	.	8D\J	.	8D\J	.	8f\J	.	8ff\J	.	8ff\J	.	8ff\J	.
8C#\L	.	2r	8C#\L	.	8C#\L	.	8e\L	.	4aa\	.	4aa\	.	4aa\	.
8AA\	.	.	8AA\	.	8AA\	.	8c#\	.	.	.	.	.	.	.
8A\	.	.	8A\	.	8A\	.	8e\	.	4cc#\	.	4cc#\	.	4cc#\	.
8G\J	.	.	8G\J	.	8G\J	.	8e\J	.	.	.	.	.	.	.
=2	=2	=2	=2	=2	=2	=2	=2	=2	=2	=2	=2	=2	=2	=2
8F\L	.	2r	8F\L	.	8F\L	.	8a\L	.	4.dd\	.	4.dd\	.	4.dd\	.
8D\	.	.	8D\	.	8D\	.	8f\	.	.	.	.	.	.	.
8F\	.	.	8F\	.	8F\	.	8a\	.	.	.	.	.	.	.
8G\J	.	.	8G\J	.	8G\J	.	8b-\J	.	16cc#\LL	.	16cc#\LL	.	16cc#\LL	.
.	.	.	.	.	.	.	.	.	16b-\JJ	.	16b-\JJ	.	16b-\JJ	.
8C#\L	.	2r	8C#\L	.	8C#\L	.	8e\L	.	8a/L	.	8a/L	.	8a/L	.
8AA\	.	.	8AA\	.	8AA\	.	8c#\	.	8g/	.	8g/	.	8g/	.
8D\	.	.	8D\	.	8D\	.	8A\	.	8f/	.	8f/	.	8f/	.
8C#\J	.	.	8C#\J	.	8C#\J	.	8A\J	.	8e/J	.	8e/J	.	8e/J	.
=3	=3	=3	=3	=3	=3	=3	=3	=3	=3	=3	=3	=3	=3	=3
8D\L	.	2r	8D\L	.	8D\L	.	8A\L	.	8f/L	.	8f/L	.	8f/L	.
8AA\	.	.	8AA\	.	8AA\	.	8A\	.	16e/L	.	16e/L	.	16e/L	.
.	.	.	.	.	.	.	.	.	16d/JJ	.	16d/JJ	.	16d/JJ	.
8D\	.	.	8D\	.	8D\	.	8f\	.	8f/L	.	8f/L	.	8f/L	.
8E\J	.	.	8E\J	.	8E\J	.	8e\J	.	8g/J	.	8g/J	.	8g/J	.
8F\L	.	2r	8F\L	.	8F\L	.	8d\L	.	8a\L	.	8a\L	.	8a\L	.
8G\	.	.	8G\	.	8G\	.	8d\	.	16bn\L	.	16bn\L	.	16bn\L	.
.	.	.	.	.	.	.	.	.	16cc#\JJ	.	16cc#\JJ	.	16cc#\JJ	.
8F\	.	.	8F\	.	8F\	.	8a\	.	8dd\L	.	8dd\L	.	8dd\L	.
8E\J	.	.	8E\J	.	8E\J	.	8g\J	.	8ee\J	.	8ee\J	.	8ee\J	.
=4	=4	=4	=4	=4	=4	=4	=4	=4	=4	=4	=4	=4	=4	=4
8D\L	.	2r	8D\L	.	8D\L	.	8a\L	.	8ff\L	.	8ff\L	.	8ff\L	.
8F\	.	.	8F\	.	8F\	.	8a\	.	16ee\L	.	16ee\L	.	16ee\L	.
.	.	.	.	.	.	.	.	.	16dd\JJ	.	16dd\JJ	.	16dd\JJ	.
8D\	.	.	8D\	.	8D\	.	8d\	.	8ff#\L	.	8ff#\L	.	8ff#\L	.
8E\J	.	.	8E\J	.	8E\J	.	8d\J	.	8gg#\J	.	8gg#\J	.	8gg#\J	.
8AA\L	.	2r	8AA\L	.	8AA\L	.	8c#\L	.	4aa\	.	4aa\	.	4aa\	.
8A\	.	.	8A\	.	8A\	.	8cc#\	.	.	.	.	.	.	.
8F\	.	.	8F\	.	8F\	.	8a\	.	8.r	.	8.r	.	8.r	.
8E\J	.	.	8E\J	.	8E\J	.	8g\J	.	.	.	.	.	.	.
.	.	.	.	.	.	.	.	.	16dd\	.	16dd\	.	16dd\	.
=5	=5	=5	=5	=5	=5	=5	=5	=5	=5	=5	=5	=5	=5	=5
8D\L	.	2r	8D\L	.	8D\L	.	8f\L	.	4dd\	.	4dd\	.	4dd\	.
8F\	.	.	8F\	.	8F\	.	8a\	.	.	.	.	.	.	.
8E\	.	.	8E\	.	8E\	.	8g\	.	16ee\LL	.	16ee\LL	.	16ee\LL	.
.	.	.	.	.	.	.	.	.	16ff\	.	16ff\	.	16ff\	.
8D\J	.	.	8D\J	.	8D\J	.	8f\J	.	16gg\	.	16gg\	.	16gg\	.
.	.	.	.	.	.	.	.	.	16aa\JJ	.	16aa\JJ	.	16aa\JJ	.
8G\L	.	2r	8G\L	.	8G\L	.	8d\L	.	8bb-\L	.	8bb-\L	.	8bb-\L	.
8A\	.	.	8A\	.	8A\	.	8c\	.	8gg\J	.	8gg\J	.	8gg\J	.
8Bn\	.	.	8Bn\	.	8Bn\	.	8d\	.	4ff\	.	4ff\	.	4ff\	.
8G\J	.	.	8G\J	.	8G\J	.	8Bn\J	.	.	.	.	.	.	.
=6	=6	=6	=6	=6	=6	=6	=6	=6	=6	=6	=6	=6	=6	=6
8C\L	.	2r	8C\L	.	8C\L	.	8G\L	.	8ee\L	.	8ee\L	.	8ee\L	.
8D\	.	.	8D\	.	8D\	.	8f\	.	8cc\J	.	8cc\J	.	8cc\J	.
8E\	.	.	8E\	.	8E\	.	8g\	.	8.c/L	.	8.c/L	.	8.c/L	.
8D\J	.	.	8D\J	.	8D\J	.	8f\J	.	.	.	.	.	.	.
.	.	.	.	.	.	.	.	.	16cc/Jk	.	16cc/Jk	.	16cc/Jk	.
8C\L	.	2r	8C\L	.	8C\L	.	8e\L	.	4cc\	.	4cc\	.	4cc\	.
8E\	.	.	8E\	.	8E\	.	8g\	.	.	.	.	.	.	.
8D\	.	.	8D\	.	8D\	.	8f\	.	16dd\LL	.	16dd\LL	.	16dd\LL	.
.	.	.	.	.	.	.	.	.	16ee\	.	16ee\	.	16ee\	.
8C\J	.	.	8C\J	.	8C\J	.	8e\J	.	16ff\	.	16ff\	.	16ff\	.
.	.	.	.	.	.	.	.	.	16gg\JJ	.	16gg\JJ	.	16gg\JJ	.
=7	=7	=7	=7	=7	=7	=7	=7	=7	=7	=7	=7	=7	=7	=7
8F\L	.	2r	8F\L	.	8F\L	.	8c\L	.	8aa\L	.	8aa\L	.	8aa\L	.
8G\	.	.	8G\	.	8G\	.	8B-\	.	8ff\J	.	8ff\J	.	8ff\J	.
8A\	.	.	8A\	.	8A\	.	8c\	.	4ee\	.	4ee\	.	4ee\	.
8F\J	.	.	8F\J	.	8F\J	.	8A\J	.	.	.	.	.	.	.
8BB-/L	.	2r	8BB-/L	.	8BB-/L	.	8F\L	.	8dd\L	.	8dd\L	.	8dd\L	.
8C/	.	.	8C/	.	8C/	.	8e\	.	8b-\J	.	8b-\J	.	8b-\J	.
8D/	.	.	8D/	.	8D/	.	8f\	.	8.B-/L	.	8.B-/L	.	8.B-/L	.
8C/J	.	.	8C/J	.	8C/J	.	8e\J	.	.	.	.	.	.	.
.	.	.	.	.	.	.	.	.	16b-/Jk	.	16b-/Jk	.	16b-/Jk	.
=8	=8	=8	=8	=8	=8	=8	=8	=8	=8	=8	=8	=8	=8	=8
8BB-/L	.	2r	8BB-/L	.	8BB-/L	.	8d\L	.	4b-\	.	4b-\	.	4b-\	.
8D/	.	.	8D/	.	8D/	.	8f\	.	.	.	.	.	.	.
8C/	.	.	8C/	.	8C/	.	8e\	.	16cc\LL	.	16cc\LL	.	16cc\LL	.
.	.	.	.	.	.	.	.	.	16dd\	.	16dd\	.	16dd\	.
8BB-/J	.	.	8BB-/J	.	8BB-/J	.	8d\J	.	16ee\	.	16ee\	.	16ee\	.
.	.	.	.	.	.	.	.	.	16ff\JJ	.	16ff\JJ	.	16ff\JJ	.
8E\L	.	2r	8E\L	.	8E\L	.	8B-\L	.	8gg\L	.	8gg\L	.	8gg\L	.
8F\	.	.	8F\	.	8F\	.	8A\	.	8ee\J	.	8ee\J	.	8ee\J	.
8G\	.	.	8G\	.	8G\	.	8B-\	.	4dd\	.	4dd\	.	4dd\	.
8G#\J	.	.	8G#\J	.	8G#\J	.	8bn\J	.	.	.	.	.	.	.
=9	=9	=9	=9	=9	=9	=9	=9	=9	=9	=9	=9	=9	=9	=9
8A\L	.	2r	8A\L	.	8A\L	.	4.e\	.	4.cc#\	.	4.cc#\	.	4.cc#\	.
8G#\	.	.	8G#\	.	8G#\	.	.	.	.	.	.	.	.	.
8A\	.	.	8A\	.	8A\	.	.	.	.	.	.	.	.	.
8D\J	.	.	8D\J	.	8D\J	.	8f\	.	8dd\	.	8dd\	.	8dd\	.
8A\L	.	2r	8A\L	.	8A\L	.	4.e\	.	4.cc#\	.	4.cc#\	.	4.cc#\	.
8G#\	.	.	8G#\	.	8G#\	.	.	.	.	.	.	.	.	.
8A\	.	.	8A\	.	8A\	.	.	.	.	.	.	.	.	.
8D\J	.	.	8D\J	.	8D\J	.	8f\	.	8dd\	.	8dd\	.	8dd\	.
=10	=10	=10	=10	=10	=10	=10	=10	=10	=10	=10	=10	=10	=10	=10
8d\L	.	2r	8d\L	.	8d\L	.	4.a\	.	4.ff#\	.	4.ff#\	.	4.ff#\	.
8c#\	.	.	8c#\	.	8c#\	.	.	.	.	.	.	.	.	.
8d\	.	.	8d\	.	8d\	.	.	.	.	.	.	.	.	.
8D\J	.	.	8D\J	.	8D\J	.	8f#\	.	8dd\	.	8dd\	.	8dd\	.
8A\L	.	2r	8A\L	.	8A\L	.	4.e\	.	4.cc#\	.	4.cc#\	.	4.cc#\	.
8G#\	.	.	8G#\	.	8G#\	.	.	.	.	.	.	.	.	.
8A\	.	.	8A\	.	8A\	.	.	.	.	.	.	.	.	.
8D\J	.	.	8D\J	.	8D\J	.	8f#\	.	8dd\	.	8dd\	.	8dd\	.
=11	=11	=11	=11	=11	=11	=11	=11	=11	=11	=11	=11	=11	=11	=11
8e\L	.	2r	8e\L	.	8e\L	.	4.bn\	.	4.gg#\	.	4.gg#\	.	4.gg#\	.
8d\	.	.	8d\	.	8d\	.	.	.	.	.	.	.	.	.
8e\	.	.	8e\	.	8e\	.	.	.	.	.	.	.	.	.
8E\J	.	.	8E\J	.	8E\J	.	8g#\	.	8dd\	.	8dd\	.	8dd\	.
8A\L	.	2r	8A\L	.	8A\L	.	4.e\	.	4.cc#\	.	4.cc#\	.	4.cc#\	.
8G#\	.	.	8G#\	.	8G#\	.	.	.	.	.	.	.	.	.
8A\	.	.	8A\	.	8A\	.	.	.	.	.	.	.	.	.
8D\J	.	.	8D\J	.	8D\J	.	8f\	.	8dd\	.	8dd\	.	8dd\	.
=12	=12	=12	=12	=12	=12	=12	=12	=12	=12	=12	=12	=12	=12	=12
4.G\	.	2r	4.G\	.	4.G\	.	4.d\	.	16bb-\LL	.	16bb-\LL	.	16bb-\LL	.
.	.	.	.	.	.	.	.	.	16aa\	.	16aa\	.	16aa\	.
.	.	.	.	.	.	.	.	.	16gg\	.	16gg\	.	16gg\	.
.	.	.	.	.	.	.	.	.	16ff\JJ	.	16ff\JJ	.	16ff\JJ	.
.	.	.	.	.	.	.	.	.	16ee\LL	.	16ee\LL	.	16ee\LL	.
.	.	.	.	.	.	.	.	.	16dd\	.	16dd\	.	16dd\	.
8G\	.	.	8G\	.	8G\	.	8d\	.	16cc#\	.	16cc#\	.	16cc#\	.
.	.	.	.	.	.	.	.	.	16bn\JJ	.	16bn\JJ	.	16bn\JJ	.
8C#\L	.	2r	8C#\L	.	8C#\L	.	8e\L	.	16a/LL	.	16a/LL	.	16a/LL	.
.	.	.	.	.	.	.	.	.	16g/	.	16g/	.	16g/	.
8AA\	.	.	8AA\	.	8AA\	.	8c#\	.	16f/	.	16f/	.	16f/	.
.	.	.	.	.	.	.	.	.	16e/JJ	.	16e/JJ	.	16e/JJ	.
8D\	.	.	8D\	.	8D\	.	8A\	.	8d/L	.	8d/L	.	8d/L	.
8F\J	.	.	8F\J	.	8F\J	.	8a\J	.	8dd/J	.	8dd/J	.	8dd/J	.
=13	=13	=13	=13	=13	=13	=13	=13	=13	=13	=13	=13	=13	=13	=13
8E\L	.	2r	8E\L	.	8E\L	.	8c#\L	.	4.g/	.	4.g/	.	4.g/	.
8D\	.	.	8D\	.	8D\	.	8f\	.	.	.	.	.	.	.
8C#\	.	.	8C#\	.	8C#\	.	8e\	.	.	.	.	.	.	.
8AA\J	.	.	8AA\J	.	8AA\J	.	8c#\J	.	16f/LL	.	16f/LL	.	16f/LL	.
.	.	.	.	.	.	.	.	.	16e/JJ	.	16e/JJ	.	16e/JJ	.
8D\L	.	2r	8D\L	.	8D\L	.	4A/	.	16d/LL	.	16d/LL	.	16d/LL	.
.	.	.	.	.	.	.	.	.	16e/	.	16e/	.	16e/	.
8E\	.	.	8E\	.	8E\	.	.	.	16f/	.	16f/	.	16f/	.
.	.	.	.	.	.	.	.	.	16g/JJ	.	16g/JJ	.	16g/JJ	.
8F\	.	.	8F\	.	8F\	.	8d\L	.	8a\L	.	8a\L	.	8a\L	.
8D\J	.	.	8D\J	.	8D\J	.	8f\J	.	8dd\J	.	8dd\J	.	8dd\J	.
=14	=14	=14	=14	=14	=14	=14	=14	=14	=14	=14	=14	=14	=14	=14
8E\L	.	2r	8E\L	.	8E\L	.	8c#\L	.	4.g/	.	4.g/	.	4.g/	.
8D\	.	.	8D\	.	8D\	.	8f\	.	.	.	.	.	.	.
8C#\	.	.	8C#\	.	8C#\	.	8e\	.	.	.	.	.	.	.
8AA\J	.	.	8AA\J	.	8AA\J	.	8c#\J	.	16f/LL	.	16f/LL	.	16f/LL	.
.	.	.	.	.	.	.	.	.	16e/JJ	.	16e/JJ	.	16e/JJ	.
8D\L	.	2r	8D\L	.	8D\L	.	4A/	.	16d/LL	.	16d/LL	.	16d/LL	.
.	.	.	.	.	.	.	.	.	16e/	.	16e/	.	16e/	.
8E\	.	.	8E\	.	8E\	.	.	.	16f/	.	16f/	.	16f/	.
.	.	.	.	.	.	.	.	.	16g/JJ	.	16g/JJ	.	16g/JJ	.
8F\	.	.	8F\	.	8F\	.	8d\L	.	8a\L	.	8a\L	.	8a\L	.
8D\J	.	.	8D\J	.	8D\J	.	8f\J	.	8dd\J	.	8dd\J	.	8dd\J	.
=15	=15	=15	=15	=15	=15	=15	=15	=15	=15	=15	=15	=15	=15	=15
4GG/	.	2r	4GG/	.	4GG/	.	16g\LL	.	16b-/LL	.	16b-/LL	.	16b-/LL	.
.	.	.	.	.	.	.	16f\	.	16a/	.	16a/	.	16a/	.
.	.	.	.	.	.	.	16e\	.	16g/	.	16g/	.	16g/	.
.	.	.	.	.	.	.	16d\JJ	.	16f/JJ	.	16f/JJ	.	16f/JJ	.
4AA/	.	.	4AA/	.	4AA/	.	8c#\L	.	8e/L	.	8e/L	.	8e/L	.
.	.	.	.	.	.	.	8e\J	.	8cc#/J	.	8cc#/J	.	8cc#/J	.
4D\	.	2r	4D\	.	4D\	.	4f\	.	4dd\	.	4dd\	.	16dd\LL	.
.	.	.	.	.	.	.	.	.	.	.	.	.	16ff\	.
.	.	.	.	.	.	.	.	.	.	.	.	.	16cc#\	.
.	.	.	.	.	.	.	.	.	.	.	.	.	16ff\JJ	.
4r	.	.	4r	.	4r	.	4r	.	4r	.	4r	.	16dd\LL	.
.	.	.	.	.	.	.	.	.	.	.	.	.	16ff\	.
.	.	.	.	.	.	.	.	.	.	.	.	.	16cc#\	.
.	.	.	.	.	.	.	.	.	.	.	.	.	16ff\JJ	.
=16	=16	=16	=16	=16	=16	=16	=16	=16	=16	=16	=16	=16	=16	=16
1r	.	2r	1r	.	1r	.	1r	.	1r	.	1r	.	16dd\LL	.
.	.	.	.	.	.	.	.	.	.	.	.	.	16ff\	.
.	.	.	.	.	.	.	.	.	.	.	.	.	16ccn\	.
.	.	.	.	.	.	.	.	.	.	.	.	.	16ff\JJ	.
.	.	.	.	.	.	.	.	.	.	.	.	.	16b-\LL	.
.	.	.	.	.	.	.	.	.	.	.	.	.	16ff\	.
.	.	.	.	.	.	.	.	.	.	.	.	.	16a\	.
.	.	.	.	.	.	.	.	.	.	.	.	.	16ff\JJ	.
.	.	2r	.	.	.	.	.	.	.	.	.	.	16g/LL	.
.	.	.	.	.	.	.	.	.	.	.	.	.	16b-/	.
.	.	.	.	.	.	.	.	.	.	.	.	.	16f#/	.
.	.	.	.	.	.	.	.	.	.	.	.	.	16b-/JJ	.
.	.	.	.	.	.	.	.	.	.	.	.	.	16g/LL	.
.	.	.	.	.	.	.	.	.	.	.	.	.	16b-/	.
.	.	.	.	.	.	.	.	.	.	.	.	.	16f#/	.
.	.	.	.	.	.	.	.	.	.	.	.	.	16b-/JJ	.
=17	=17	=17	=17	=17	=17	=17	=17	=17	=17	=17	=17	=17	=17	=17
1r	.	2r	1r	.	1r	.	1r	.	1r	.	1r	.	16g/LL	.
.	.	.	.	.	.	.	.	.	.	.	.	.	16b-/	.
.	.	.	.	.	.	.	.	.	.	.	.	.	16fn/	.
.	.	.	.	.	.	.	.	.	.	.	.	.	16b-/JJ	.
.	.	.	.	.	.	.	.	.	.	.	.	.	16e/LL	.
.	.	.	.	.	.	.	.	.	.	.	.	.	16b-/	.
.	.	.	.	.	.	.	.	.	.	.	.	.	16d/	.
.	.	.	.	.	.	.	.	.	.	.	.	.	16b-/JJ	.
.	.	2r	.	.	.	.	.	.	.	.	.	.	16c#/LL	.
.	.	.	.	.	.	.	.	.	.	.	.	.	16e/	.
.	.	.	.	.	.	.	.	.	.	.	.	.	16Bn/	.
.	.	.	.	.	.	.	.	.	.	.	.	.	16e/JJ	.
.	.	.	.	.	.	.	.	.	.	.	.	.	16c#/LL	.
.	.	.	.	.	.	.	.	.	.	.	.	.	16e/	.
.	.	.	.	.	.	.	.	.	.	.	.	.	16B/	.
.	.	.	.	.	.	.	.	.	.	.	.	.	16e/JJ	.
=18	=18	=18	=18	=18	=18	=18	=18	=18	=18	=18	=18	=18	=18	=18
*	*	*	*	*	*	*	*	*	*	*	*	*	*^	*
2r	.	2r	1r	.	2r	.	1r	.	1r	.	1r	.	16c#/LL	2r	.
.	.	.	.	.	.	.	.	.	.	.	.	.	16e/	.	.
.	.	.	.	.	.	.	.	.	.	.	.	.	16Bn/	.	.
.	.	.	.	.	.	.	.	.	.	.	.	.	16e/JJ	.	.
.	.	.	.	.	.	.	.	.	.	.	.	.	16c#/LL	.	.
.	.	.	.	.	.	.	.	.	.	.	.	.	16e/	.	.
.	.	.	.	.	.	.	.	.	.	.	.	.	16B/	.	.
.	.	.	.	.	.	.	.	.	.	.	.	.	16e/JJ	.	.
8A\L	f	2r	.	.	8A\L	.	.	.	.	.	.	.	4a/	8A\ 8e\	.
8Bn\	.	.	.	.	8Bn\	.	.	.	.	.	.	.	.	8r	.
8c#\	.	.	.	.	8c#\	.	.	.	.	.	.	.	4r	4r	.
8A\J	.	.	.	.	8A\J	.	.	.	.	.	.	.	.	.	.
*	*	*	*	*	*	*	*	*	*	*	*	*	*v	*v	*
=19	=19	=19	=19	=19	=19	=19	=19	=19	=19	=19	=19	=19	=19	=19
4d\	.	2r	1r	.	4d\	.	1r	.	1r	.	1r	.	8ff\ 8aa\L	.
.	.	.	.	.	.	.	.	.	.	.	.	.	8ff\ 8ddd\	.
4r	.	.	.	.	4r	.	.	.	.	.	.	.	8ff\ 8bb-\	.
.	.	.	.	.	.	.	.	.	.	.	.	.	8ff\ 8aa\J	.
8G\L	.	2r	.	.	8G\L	.	.	.	.	.	.	.	8gg\ 8bb-\L	.
8D\	.	.	.	.	8D\	.	.	.	.	.	.	.	8ff\ 8aa\	.
8G\	.	.	.	.	8G\	.	.	.	.	.	.	.	8gg\ 8bb-\	.
8D\J	.	.	.	.	8D\J	.	.	.	.	.	.	.	8ff\ 8aa\J	.
=20	=20	=20	=20	=20	=20	=20	=20	=20	=20	=20	=20	=20	=20	=20
4C/	.	2r	1r	.	4C/	.	1r	.	1r	.	1r	.	8ee\ 8gg\L	.
.	.	.	.	.	.	.	.	.	.	.	.	.	8ee\ 8ccc\	.
4r	.	.	.	.	4r	.	.	.	.	.	.	.	8ee\ 8aa\	.
.	.	.	.	.	.	.	.	.	.	.	.	.	8ee\ 8gg\J	.
8F\L	.	2r	.	.	8F\L	.	.	.	.	.	.	.	8ff\ 8aa\L	.
8C\	.	.	.	.	8C\	.	.	.	.	.	.	.	8ee\ 8gg\	.
8F\	.	.	.	.	8F\	.	.	.	.	.	.	.	8ff\ 8aa\	.
8C\J	.	.	.	.	8C\J	.	.	.	.	.	.	.	8ee\ 8gg\J	.
=21	=21	=21	=21	=21	=21	=21	=21	=21	=21	=21	=21	=21	=21	=21
4BB-/	.	2r	1r	.	4BB-/	.	1r	.	1r	.	1r	.	8dd\ 8ff\L	.
.	.	.	.	.	.	.	.	.	.	.	.	.	8dd\ 8bb-\	.
4r	.	.	.	.	4r	.	.	.	.	.	.	.	8dd\ 8gg\	.
.	.	.	.	.	.	.	.	.	.	.	.	.	8dd\ 8ff\J	.
8AA/L	.	2r	.	.	8AA/L	.	.	.	.	.	.	.	8ee\ 8gg\L	.
8D/	.	.	.	.	8D/	.	.	.	.	.	.	.	8dd\ 8ff\	.
8AA/	.	.	.	.	8AA/	.	.	.	.	.	.	.	8ee\ 8gg\	.
8D/J	.	.	.	.	8D/J	.	.	.	.	.	.	.	8dd\ 8ff\J	.
=22	=22	=22	=22	=22	=22	=22	=22	=22	=22	=22	=22	=22	=22	=22
4AA/	.	2r	1r	.	4AA/	.	1r	.	1r	.	1r	.	8cc#\ 8ee\L	.
.	.	.	.	.	.	.	.	.	.	.	.	.	8cc#\ 8aa\	.
4r	.	.	.	.	4r	.	.	.	.	.	.	.	8cc#\ 8ff\	.
.	.	.	.	.	.	.	.	.	.	.	.	.	8cc#\ 8ee\J	.
4D\	.	2r	.	.	4D\	.	.	.	.	.	.	.	8dd\ 8ff\L	.
.	.	.	.	.	.	.	.	.	.	.	.	.	8cc#\ 8ff\	.
4r	.	.	.	.	4r	.	.	.	.	.	.	.	8bn\ 8ff\	.
.	.	.	.	.	.	.	.	.	.	.	.	.	8a\ 8ff\J	.
=23	=23	=23	=23	=23	=23	=23	=23	=23	=23	=23	=23	=23	=23	=23
4E\	.	2r	1r	.	4E\	.	1r	.	1r	.	1r	.	8g#\ 8bn\ 8ee\L	.
.	.	.	.	.	.	.	.	.	.	.	.	.	16bbn\L	.
.	.	.	.	.	.	.	.	.	.	.	.	.	16aa\JJ	.
4r	.	.	.	.	4r	.	.	.	.	.	.	.	16gg#\LL	.
.	.	.	.	.	.	.	.	.	.	.	.	.	16ff#\	.
.	.	.	.	.	.	.	.	.	.	.	.	.	16ee\	.
.	.	.	.	.	.	.	.	.	.	.	.	.	16dd\JJ	.
4AA/	.	2r	.	.	4AA/	.	.	.	.	.	.	.	8gn\ 8cc#\L	.
.	.	.	.	.	.	.	.	.	.	.	.	.	16ee\L	.
.	.	.	.	.	.	.	.	.	.	.	.	.	16dd\JJ	.
4r	.	.	.	.	4r	.	.	.	.	.	.	.	16cc#\LL	.
.	.	.	.	.	.	.	.	.	.	.	.	.	16b\	.
.	.	.	.	.	.	.	.	.	.	.	.	.	16a\	.
.	.	.	.	.	.	.	.	.	.	.	.	.	16g\JJ	.
=24	=24	=24	=24	=24	=24	=24	=24	=24	=24	=24	=24	=24	=24	=24
4D\	.	2r	1r	.	4D\	.	1r	.	1r	.	1r	.	8c\ 8f#\L	.
.	.	.	.	.	.	.	.	.	.	.	.	.	16aa\L	.
.	.	.	.	.	.	.	.	.	.	.	.	.	16gg\JJ	.
4r	.	.	.	.	4r	.	.	.	.	.	.	.	16ff#\LL	.
.	.	.	.	.	.	.	.	.	.	.	.	.	16ee\	.
.	.	.	.	.	.	.	.	.	.	.	.	.	16dd\	.
.	.	.	.	.	.	.	.	.	.	.	.	.	16cc\JJ	.
4GG/	.	2r	.	.	4GG/	.	.	.	.	.	.	.	8fn\ 8bn\L	.
.	.	.	.	.	.	.	.	.	.	.	.	.	16dd\L	.
.	.	.	.	.	.	.	.	.	.	.	.	.	16cc\JJ	.
4r	.	.	.	.	4r	.	.	.	.	.	.	.	16b\LL	.
.	.	.	.	.	.	.	.	.	.	.	.	.	16a\	.
.	.	.	.	.	.	.	.	.	.	.	.	.	16g\	.
.	.	.	.	.	.	.	.	.	.	.	.	.	16f\JJ	.
=25	=25	=25	=25	=25	=25	=25	=25	=25	=25	=25	=25	=25	=25	=25
4C/	.	2r	1r	.	4C/	.	1r	.	1r	.	1r	.	8B-\ 8e\L	.
.	.	.	.	.	.	.	.	.	.	.	.	.	16gg\L	.
.	.	.	.	.	.	.	.	.	.	.	.	.	16ff\JJ	.
4r	.	.	.	.	4r	.	.	.	.	.	.	.	16ee\LL	.
.	.	.	.	.	.	.	.	.	.	.	.	.	16dd\	.
.	.	.	.	.	.	.	.	.	.	.	.	.	16cc\	.
.	.	.	.	.	.	.	.	.	.	.	.	.	16b-\JJ	.
4F\	.	2r	.	.	4F\	.	.	.	.	.	.	.	8f\ 8a\L	.
.	.	.	.	.	.	.	.	.	.	.	.	.	16aa\L	.
.	.	.	.	.	.	.	.	.	.	.	.	.	16gg\JJ	.
4r	.	.	.	.	4r	.	.	.	.	.	.	.	16ff\LL	.
.	.	.	.	.	.	.	.	.	.	.	.	.	16ee\	.
.	.	.	.	.	.	.	.	.	.	.	.	.	16dd\	.
.	.	.	.	.	.	.	.	.	.	.	.	.	16cc\JJ	.
=26	=26	=26	=26	=26	=26	=26	=26	=26	=26	=26	=26	=26	=26	=26
4G\	.	2r	1r	.	4G\	.	1r	.	1r	.	1r	.	8g\ 8b-\L	.
.	.	.	.	.	.	.	.	.	.	.	.	.	16bb-\L	.
.	.	.	.	.	.	.	.	.	.	.	.	.	16aa\JJ	.
4r	.	.	.	.	4r	.	.	.	.	.	.	.	16gg\LL	.
.	.	.	.	.	.	.	.	.	.	.	.	.	16ff\	.
.	.	.	.	.	.	.	.	.	.	.	.	.	16ee\	.
.	.	.	.	.	.	.	.	.	.	.	.	.	16dd\JJ	.
4A\	.	2r	.	.	4A\	.	.	.	.	.	.	.	8a\ 8cc#\L	.
.	.	.	.	.	.	.	.	.	.	.	.	.	16ccc#\L	.
.	.	.	.	.	.	.	.	.	.	.	.	.	16bbn\JJ	.
4r	.	.	.	.	4r	.	.	.	.	.	.	.	16aa\LL	.
.	.	.	.	.	.	.	.	.	.	.	.	.	16gg\	.
.	.	.	.	.	.	.	.	.	.	.	.	.	16ff\	.
.	.	.	.	.	.	.	.	.	.	.	.	.	16ee\JJ	.
=27	=27	=27	=27	=27	=27	=27	=27	=27	=27	=27	=27	=27	=27	=27
*	*	*	*	*	*	*	*	*	*	*	*	*	*^	*
4Bn\	.	2r	1r	.	4Bn\	.	1r	.	1r	.	1r	.	8bn/ 8dd/L	2r	.
.	.	.	.	.	.	.	.	.	.	.	.	.	16ddd/L	.	.
.	.	.	.	.	.	.	.	.	.	.	.	.	16ccc/JJ	.	.
4r	.	.	.	.	4r	.	.	.	.	.	.	.	16bbn/LL	.	.
.	.	.	.	.	.	.	.	.	.	.	.	.	16aa/	.	.
.	.	.	.	.	.	.	.	.	.	.	.	.	16gg#/	.	.
.	.	.	.	.	.	.	.	.	.	.	.	.	16ff#/JJ	.	.
4E\	.	2r	.	.	4E\	.	.	.	.	.	.	.	8ee/L	4g#\	.
.	.	.	.	.	.	.	.	.	.	.	.	.	8ffn/	.	.
4r	.	.	.	.	4r	.	.	.	.	.	.	.	8ee/	4g#\	.
.	.	.	.	.	.	.	.	.	.	.	.	.	8ff/J	.	.
=28	=28	=28	=28	=28	=28	=28	=28	=28	=28	=28	=28	=28	=28	=28	=28
4E\	.	2r	1r	.	4E\	.	1r	.	1r	.	1r	.	8ee/L	4g#\	.
.	.	.	.	.	.	.	.	.	.	.	.	.	8ff/	.	.
4r	.	.	.	.	4r	.	.	.	.	.	.	.	8ee/	4g#\	.
.	.	.	.	.	.	.	.	.	.	.	.	.	8ff/J	.	.
4E\	.	2r	.	.	4E\	.	.	.	.	.	.	.	8d/L	2r	.
.	.	.	.	.	.	.	.	.	.	.	.	.	8g#/	.	.
4r	.	.	.	.	4r	.	.	.	.	.	.	.	8ff/	.	.
.	.	.	.	.	.	.	.	.	.	.	.	.	8dd/J	.	.
*	*	*	*	*	*	*	*	*	*	*	*	*	*v	*v	*
=29	=29	=29	=29	=29	=29	=29	=29	=29	=29	=29	=29	=29	=29	=29
4E\	.	2r	1r	.	4E\	.	1r	.	1r	.	1r	.	8d\L	.
.	.	.	.	.	.	.	.	.	.	.	.	.	8g#\	.
4r	.	.	.	.	4r	.	.	.	.	.	.	.	8ff\	.
.	.	.	.	.	.	.	.	.	.	.	.	.	8dd\J	.
8AA/L	.	2r	.	.	8AA/L	.	.	.	.	.	.	.	8cc\L	.
8BBn/	.	.	.	.	8BBn/	.	.	.	.	.	.	.	8ee\	.
8C/	.	.	.	.	8C/	.	.	.	.	.	.	.	8aa\	.
8AA/J	.	.	.	.	8AA/J	.	.	.	.	.	.	.	8a\J	.
=30	=30	=30	=30	=30	=30	=30	=30	=30	=30	=30	=30	=30	=30	=30
*	*	*	*	*	*	*	*	*	*	*	*	*	*^	*
4E\	.	2r	2r	.	4E\	.	2r	.	2r	.	2r	.	4.bn/	2e\	.
4EE/	.	.	.	.	4EE/	.	.	.	.	.	.	.	.	.	.
.	.	.	.	.	.	.	.	.	.	.	.	.	8a/	.	.
8AA/L	f	2r	8AA/L	f	8AA/L	f	8c\L	f	8a\L	f	8a\L	f	8a/L	2r	f
8BBn/	.	.	8BBn/	.	8BBn/	.	8d\	.	8e\	.	8e\	.	8e/	.	.
8C/	.	.	8C/	.	8C/	.	8e\	.	8a\	.	8a\	.	8a/	.	.
8AA/J	.	.	8AA/J	.	8AA/J	.	8c\J	.	8cc\J	.	8cc\J	.	8cc/J	.	.
*	*	*	*	*	*	*	*	*	*	*	*	*	*v	*v	*
=31	=31	=31	=31	=31	=31	=31	=31	=31	=31	=31	=31	=31	=31	=31
8GG#/L	.	2r	8GG#/L	.	8GG#/L	.	8Bn/L	.	4ee\	.	4ee\	.	4ee\	.
8EE/	.	.	8EE/	.	8EE/	.	8G#/	.	.	.	.	.	.	.
8E/	.	.	8E/	.	8E/	.	8B/	.	4g#/	.	4g#/	.	4g#/	.
8D/J	.	.	8D/J	.	8D/J	.	8B/J	.	.	.	.	.	.	.
8C/L	.	2r	8C/L	.	8C/L	.	8e\L	.	[4a/	.	[4a/	.	[4a/	.
8AA/	.	.	8AA/	.	8AA/	.	8c\	.	.	.	.	.	.	.
8C/	.	.	8C/	.	8C/	.	8e\	.	16a\LL]	.	16a\LL]	.	16a\LL]	.
.	.	.	.	.	.	.	.	.	16aa\	.	16aa\	.	16aa\	.
8D/J	.	.	8D/J	.	8D/J	.	8f\J	.	16ggn\	.	16ggn\	.	16ggn\	.
.	.	.	.	.	.	.	.	.	16ff\JJ	.	16ff\JJ	.	16ff\JJ	.
=32	=32	=32	=32	=32	=32	=32	=32	=32	=32	=32	=32	=32	=32	=32
8E\L	.	2r	8E\L	.	(8E\L	.	8Bn\L	.	8ee\L	.	8ee\L	.	8ee\L	.
8F#\	.	.	8F#\	.	8F#\)	.	8d\	.	8dd\	.	8dd\	.	8dd\	.
8G#\	.	.	8G#\	.	8G#\	.	8e\	.	8cc\	.	8cc\	.	8cc\	.
8E\J	.	.	8E\J	.	8E\J	.	8g#\J	.	8bn\J	.	8bn\J	.	8bn\J	.
8A\L	.	2r	8A\L	.	8A\L	.	8e\L	.	8cc\L	.	8cc\L	.	8cc\L	.
8E\	.	.	8E\	.	8E\	.	8g#\	.	16b\L	.	16b\L	.	16b\L	.
.	.	.	.	.	.	.	.	.	16a\JJ	.	16a\JJ	.	16a\JJ	.
8A\	.	.	8A\	.	8A\	.	8e\	.	8cc\L	.	8cc\L	.	8cc\L	.
8Bn\J	.	.	8Bn\J	.	8Bn\J	.	8d\J	.	8dd\J	.	8dd\J	.	8dd\J	.
=33	=33	=33	=33	=33	=33	=33	=33	=33	=33	=33	=33	=33	=33	=33
8c\L	.	2r	8c\L	.	8c\L	.	4.a\	.	8ee\L	.	8ee\L	.	8ee\L	.
8d\	.	.	8d\	.	8d\	.	.	.	16ff#\L	.	16ff#\L	.	16ff#\L	.
.	.	.	.	.	.	.	.	.	16gg#\JJ	.	16gg#\JJ	.	16gg#\JJ	.
8c\	.	.	8c\	.	8c\	.	.	.	8aa\L	.	8aa\L	.	8aa\L	.
8Bn\J	.	.	8Bn\J	.	8Bn\J	.	8g#\	.	8bbn\J	.	8bbn\J	.	8bbn\J	.
8A\L	.	2r	8A\L	.	8A\L	.	4.e\	.	8ccc\L	.	8ccc\L	.	8ccc\L	.
8c\	.	.	8c\	.	8c\	.	.	.	16bb\L	.	16bb\L	.	16bb\L	.
.	.	.	.	.	.	.	.	.	16aa\JJ	.	16aa\JJ	.	16aa\JJ	.
8A\	.	.	8A\	.	8A\	.	.	.	4ccc\	.	8ccc\L	.	8ccc\L	.
8F\J	.	.	8F\J	.	8F\J	.	8a\	.	.	.	8ddd\J	.	8ddd\J	.
=34	=34	=34	=34	=34	=34	=34	=34	=34	=34	=34	=34	=34	=34	=34
*	*	*	*	*	*^	*	*	*	*	*	*	*	*	*
8E\L	.	2r	4E\	.	8E/L	4E\	.	4g#\	.	8eee\L	.	8eee\L	.	8eee\L	.
8D\	.	.	.	.	8D/	.	.	.	.	8ee\J	.	8ee\J	.	8ee\J	.
8C#\	.	.	4r	.	8C#/	4r	.	4r	.	4r	.	4r	.	16r	.
.	.	.	.	.	.	.	.	.	.	.	.	.	.	16aa\LL	.
8AA\J	.	.	.	.	8AA/J	.	.	.	.	.	.	.	.	16a\	.
.	.	.	.	.	.	.	.	.	.	.	.	.	.	16aa\JJ	.
8D\L	.	2r	2r	.	8D/L	2r	.	2r	.	2r	.	2r	.	16ff\LL	.
.	.	.	.	.	.	.	.	.	.	.	.	.	.	16dd\	.
8F#\	.	.	.	.	8F#/	.	.	.	.	.	.	.	.	16d\	.
.	.	.	.	.	.	.	.	.	.	.	.	.	.	16dd\JJ	.
8G\	.	.	.	.	8G/	.	.	.	.	.	.	.	.	16bn\LL	.
.	.	.	.	.	.	.	.	.	.	.	.	.	.	16gg\	.
8BBn\J	.	.	.	.	8BBn/J	.	.	.	.	.	.	.	.	16g\	.
.	.	.	.	.	.	.	.	.	.	.	.	.	.	16gg\JJ	.
*	*	*	*	*	*v	*v	*	*	*	*	*	*	*	*	*
=35	=35	=35	=35	=35	=35	=35	=35	=35	=35	=35	=35	=35	=35	=35
8C\L	.	2r	1r	.	8C\L	.	1r	.	1r	.	1r	.	16ee/LL	.
.	.	.	.	.	.	.	.	.	.	.	.	.	16cc/	.
8E\	.	.	.	.	8E\	.	.	.	.	.	.	.	16c/	.
.	.	.	.	.	.	.	.	.	.	.	.	.	16cc/JJ	.
8F\	.	.	.	.	8F\	.	.	.	.	.	.	.	16a\LL	.
.	.	.	.	.	.	.	.	.	.	.	.	.	16ff\	.
8AA\J	.	.	.	.	8AA\J	.	.	.	.	.	.	.	16f\	.
.	.	.	.	.	.	.	.	.	.	.	.	.	16ff\JJ	.
8BBn\L	.	2r	.	.	8BBn\L	.	.	.	.	.	.	.	16dd/LL	.
.	.	.	.	.	.	.	.	.	.	.	.	.	16bn/	.
8D\	.	.	.	.	8D\	.	.	.	.	.	.	.	16Bn/	.
.	.	.	.	.	.	.	.	.	.	.	.	.	16b/JJ	.
8E\	.	.	.	.	8E\	.	.	.	.	.	.	.	16g#\LL	.
.	.	.	.	.	.	.	.	.	.	.	.	.	16ee\	.
8GG#\J	.	.	.	.	8GG#\J	.	.	.	.	.	.	.	16e\	.
.	.	.	.	.	.	.	.	.	.	.	.	.	16ee\JJ	.
=36	=36	=36	=36	=36	=36	=36	=36	=36	=36	=36	=36	=36	=36	=36
8AA\L	.	2r	1r	.	8AA\L	.	1r	.	1r	.	1r	.	16cc\LL	.
.	.	.	.	.	.	.	.	.	.	.	.	.	16ee\	.
8A\	.	.	.	.	8A\	.	.	.	.	.	.	.	16e\	.
.	.	.	.	.	.	.	.	.	.	.	.	.	16ee\JJ	.
8Bn\	.	.	.	.	8Bn\	.	.	.	.	.	.	.	16dd\LL	.
.	.	.	.	.	.	.	.	.	.	.	.	.	16dd\	.
8G#\J	.	.	.	.	8G#\J	.	.	.	.	.	.	.	16e\	.
.	.	.	.	.	.	.	.	.	.	.	.	.	16dd\JJ	.
8A\L	.	2r	.	.	8A\L	.	.	.	.	.	.	.	16cc\LL	.
.	.	.	.	.	.	.	.	.	.	.	.	.	16cc\	.
8C\	.	.	.	.	8C\	.	.	.	.	.	.	.	16e\	.
.	.	.	.	.	.	.	.	.	.	.	.	.	16cc\JJ	.
8BBn\	.	.	.	.	8BBn\	.	.	.	.	.	.	.	16d#/LL	.
.	.	.	.	.	.	.	.	.	.	.	.	.	16cc/	.
8D#\J	.	.	.	.	8D#\J	.	.	.	.	.	.	.	16bn/	.
.	.	.	.	.	.	.	.	.	.	.	.	.	16a/JJ	.
=37	=37	=37	=37	=37	=37	=37	=37	=37	=37	=37	=37	=37	=37	=37
8E\L	.	2r	1r	.	8E\L	.	1r	.	1r	.	1r	.	16g#\LL	.
.	.	.	.	.	.	.	.	.	.	.	.	.	16ee\	.
8A\	.	.	.	.	8A\	.	.	.	.	.	.	.	16e\	.
.	.	.	.	.	.	.	.	.	.	.	.	.	16ee\JJ	.
8Bn\	.	.	.	.	8Bn\	.	.	.	.	.	.	.	16dd\LL	.
.	.	.	.	.	.	.	.	.	.	.	.	.	16dd\	.
8G#\J	.	.	.	.	8G#\J	.	.	.	.	.	.	.	16e\	.
.	.	.	.	.	.	.	.	.	.	.	.	.	16dd\JJ	.
8A\L	.	2r	.	.	8A\L	.	.	.	.	.	.	.	16cc\LL	.
.	.	.	.	.	.	.	.	.	.	.	.	.	16cc\	.
8C\	.	.	.	.	8C\	.	.	.	.	.	.	.	16e\	.
.	.	.	.	.	.	.	.	.	.	.	.	.	16cc\JJ	.
8BBn\	.	.	.	.	8BBn\	.	.	.	.	.	.	.	16d#/LL	.
.	.	.	.	.	.	.	.	.	.	.	.	.	16cc/	.
8D#\J	.	.	.	.	8D#\J	.	.	.	.	.	.	.	16bn/	.
.	.	.	.	.	.	.	.	.	.	.	.	.	16a/JJ	.
=38	=38	=38	=38	=38	=38	=38	=38	=38	=38	=38	=38	=38	=38	=38
8E\L	.	2r	1r	.	8E\L	.	1r	.	1r	.	1r	.	4g#/	.
8D\	.	.	.	.	8D\	.	.	.	.	.	.	.	.	.
8C\	.	.	.	.	8C\	.	.	.	.	.	.	.	16r	.
.	.	.	.	.	.	.	.	.	.	.	.	.	16ee\LL	.
8AA\J	.	.	.	.	8AA\J	.	.	.	.	.	.	.	16e\	.
.	.	.	.	.	.	.	.	.	.	.	.	.	16ee\JJ	.
4D\	.	2r	.	.	4D\	.	.	.	.	.	.	.	16f#\LL	.
.	.	.	.	.	.	.	.	.	.	.	.	.	16ee\	.
.	.	.	.	.	.	.	.	.	.	.	.	.	16f#\	.
.	.	.	.	.	.	.	.	.	.	.	.	.	16ddn\JJ	.
8E\L	.	.	.	.	8E\L	.	.	.	.	.	.	.	16g#/LL	.
.	.	.	.	.	.	.	.	.	.	.	.	.	16dd/	.
8G#\J	.	.	.	.	8G#\J	.	.	.	.	.	.	.	16e/	.
.	.	.	.	.	.	.	.	.	.	.	.	.	16dd/JJ	.
=39	=39	=39	=39	=39	=39	=39	=39	=39	=39	=39	=39	=39	=39	=39
4A\	.	2r	1r	.	4A\	.	1r	.	1r	.	1r	.	16a/ 16cc/LL	.
.	.	.	.	.	.	.	.	.	.	.	.	.	16e/	.
.	.	.	.	.	.	.	.	.	.	.	.	.	16c/	.
.	.	.	.	.	.	.	.	.	.	.	.	.	16e/JJ	.
4r	.	.	.	.	4r	.	.	.	.	.	.	.	16A\LL	.
.	.	.	.	.	.	.	.	.	.	.	.	.	16aa\	.
.	.	.	.	.	.	.	.	.	.	.	.	.	16a\	.
.	.	.	.	.	.	.	.	.	.	.	.	.	16aa\JJ	.
4G\	.	2r	.	.	4G\	.	.	.	.	.	.	.	16bn\LL	.
.	.	.	.	.	.	.	.	.	.	.	.	.	16aa\	.
.	.	.	.	.	.	.	.	.	.	.	.	.	16b\	.
.	.	.	.	.	.	.	.	.	.	.	.	.	16gg\JJ	.
8A\L	.	.	.	.	8A\L	.	.	.	.	.	.	.	16cc#\LL	.
.	.	.	.	.	.	.	.	.	.	.	.	.	16gg\	.
8c#\J	.	.	.	.	8c#\J	.	.	.	.	.	.	.	16a\	.
.	.	.	.	.	.	.	.	.	.	.	.	.	16gg\JJ	.
=40	=40	=40	=40	=40	=40	=40	=40	=40	=40	=40	=40	=40	=40	=40
4d\	.	2r	1r	.	4d\	.	1r	.	1r	.	1r	.	16dd\ 16ff\LL	.
.	.	.	.	.	.	.	.	.	.	.	.	.	16a\	.
.	.	.	.	.	.	.	.	.	.	.	.	.	16f\	.
.	.	.	.	.	.	.	.	.	.	.	.	.	16a\JJ	.
4r	.	.	.	.	4r	.	.	.	.	.	.	.	16d\LL	.
.	.	.	.	.	.	.	.	.	.	.	.	.	16ddd\	.
.	.	.	.	.	.	.	.	.	.	.	.	.	16dd\	.
.	.	.	.	.	.	.	.	.	.	.	.	.	16ddd\JJ	.
4C/	.	2r	.	.	4C/	.	.	.	.	.	.	.	16ee\LL	.
.	.	.	.	.	.	.	.	.	.	.	.	.	16ddd\	.
.	.	.	.	.	.	.	.	.	.	.	.	.	16ee\	.
.	.	.	.	.	.	.	.	.	.	.	.	.	16ccc\JJ	.
(8D\L	.	.	.	.	8D\L	.	.	.	.	.	.	.	16ff#\LL	.
.	.	.	.	.	.	.	.	.	.	.	.	.	16ccc\	.
8F#\J)	.	.	.	.	8F#\J	.	.	.	.	.	.	.	16dd\	.
.	.	.	.	.	.	.	.	.	.	.	.	.	16ccc\JJ	.
=41	=41	=41	=41	=41	=41	=41	=41	=41	=41	=41	=41	=41	=41	=41
4G\	.	2r	1r	.	4G\	.	1r	.	1r	.	1r	.	16gg\ 16bbn\LL	.
.	.	.	.	.	.	.	.	.	.	.	.	.	16dd\	.
.	.	.	.	.	.	.	.	.	.	.	.	.	16bn\	.
.	.	.	.	.	.	.	.	.	.	.	.	.	16dd\JJ	.
4r	.	.	.	.	4r	.	.	.	.	.	.	.	16g\LL	.
.	.	.	.	.	.	.	.	.	.	.	.	.	16eee\	.
.	.	.	.	.	.	.	.	.	.	.	.	.	16ee\	.
.	.	.	.	.	.	.	.	.	.	.	.	.	16eee\JJ	.
4D\	.	2r	.	.	4D\	.	.	.	.	.	.	.	16ff#\LL	.
.	.	.	.	.	.	.	.	.	.	.	.	.	16eee\	.
.	.	.	.	.	.	.	.	.	.	.	.	.	16ff#\	.
.	.	.	.	.	.	.	.	.	.	.	.	.	16ddd\JJ	.
8E\L	.	.	.	.	8E\L	.	.	.	.	.	.	.	16gg\LL	.
.	.	.	.	.	.	.	.	.	.	.	.	.	16ddd\	.
8G#\J	.	.	.	.	8G#\J	.	.	.	.	.	.	.	16ee\	.
.	.	.	.	.	.	.	.	.	.	.	.	.	16ddd\JJ	.
=42	=42	=42	=42	=42	=42	=42	=42	=42	=42	=42	=42	=42	=42	=42
4A\	.	2r	1r	.	4A\	.	1r	.	1r	.	8r	.	16aa\LL	.
.	.	.	.	.	.	.	.	.	.	.	.	.	16ccc\	.
.	.	.	.	.	.	.	.	.	.	.	8cc\	p	16ee\	.
.	.	.	.	.	.	.	.	.	.	.	.	.	16ccc\JJ	.
4r	.	.	.	.	4r	.	.	.	.	.	8ee\L	.	16aa\LL	.
.	.	.	.	.	.	.	.	.	.	.	.	.	16ccc\	.
.	.	.	.	.	.	.	.	.	.	.	8cc\J	.	16ee\	.
.	.	.	.	.	.	.	.	.	.	.	.	.	16ccc\JJ	.
4G\	.	2r	.	.	4G\	.	.	.	.	.	8r	.	16dd\LL	.
.	.	.	.	.	.	.	.	.	.	.	.	.	16ff\	.
.	.	.	.	.	.	.	.	.	.	.	8f/	.	16a\	.
.	.	.	.	.	.	.	.	.	.	.	.	.	16ff\JJ	.
4r	.	.	.	.	4r	.	.	.	.	.	8a/L	.	16dd\LL	.
.	.	.	.	.	.	.	.	.	.	.	.	.	16ff\	.
.	.	.	.	.	.	.	.	.	.	.	8f/J	.	16a\	.
.	.	.	.	.	.	.	.	.	.	.	.	.	16ff\JJ	.
=43	=43	=43	=43	=43	=43	=43	=43	=43	=43	=43	=43	=43	=43	=43
4G\	.	2r	1r	.	4G\	.	1r	.	1r	.	8r	.	16ggn\LL	.
.	.	.	.	.	.	.	.	.	.	.	.	.	16bbn\	.
.	.	.	.	.	.	.	.	.	.	.	8bn\	.	16dd\	.
.	.	.	.	.	.	.	.	.	.	.	.	.	16bb\JJ	.
4r	.	.	.	.	4r	.	.	.	.	.	8dd\L	.	16gg\LL	.
.	.	.	.	.	.	.	.	.	.	.	.	.	16bb\	.
.	.	.	.	.	.	.	.	.	.	.	8b\J	.	16dd\	.
.	.	.	.	.	.	.	.	.	.	.	.	.	16bb\JJ	.
4c\	.	2r	.	.	4c\	.	.	.	.	.	8r	.	16cc\LL	.
.	.	.	.	.	.	.	.	.	.	.	.	.	16ee\	.
.	.	.	.	.	.	.	.	.	.	.	8e/	.	16g\	.
.	.	.	.	.	.	.	.	.	.	.	.	.	16ee\JJ	.
4r	.	.	.	.	4r	.	.	.	.	.	8g/L	.	16cc\LL	.
.	.	.	.	.	.	.	.	.	.	.	.	.	16ee\	.
.	.	.	.	.	.	.	.	.	.	.	8e/J	.	16g\	.
.	.	.	.	.	.	.	.	.	.	.	.	.	16ee\JJ	.
=44	=44	=44	=44	=44	=44	=44	=44	=44	=44	=44	=44	=44	=44	=44
4F\	.	2r	1r	.	4F\	.	1r	.	1r	.	8r	.	16ff\LL	.
.	.	.	.	.	.	.	.	.	.	.	.	.	16aa\	.
.	.	.	.	.	.	.	.	.	.	.	8a/	.	16cc\	.
.	.	.	.	.	.	.	.	.	.	.	.	.	16aa\JJ	.
4r	.	.	.	.	4r	.	.	.	.	.	8cc\L	.	16ff\LL	.
.	.	.	.	.	.	.	.	.	.	.	.	.	16aa\	.
.	.	.	.	.	.	.	.	.	.	.	8a\J	.	16cc\	.
.	.	.	.	.	.	.	.	.	.	.	.	.	16aa\JJ	.
4Bn\	.	2r	.	.	4Bn\	.	.	.	.	.	8r	.	16bn\LL	.
.	.	.	.	.	.	.	.	.	.	.	.	.	16dd\	.
.	.	.	.	.	.	.	.	.	.	.	8d/	.	16f#\	.
.	.	.	.	.	.	.	.	.	.	.	.	.	16dd\JJ	.
4r	.	.	.	.	4r	.	.	.	.	.	8f#/L	.	16b\LL	.
.	.	.	.	.	.	.	.	.	.	.	.	.	16dd\	.
.	.	.	.	.	.	.	.	.	.	.	8d/J	.	16f#\	.
.	.	.	.	.	.	.	.	.	.	.	.	.	16dd\JJ	.
=45	=45	=45	=45	=45	=45	=45	=45	=45	=45	=45	=45	=45	=45	=45
4E\	.	2r	1r	.	4E\	.	1r	.	1r	.	8r	.	16ee\LL	.
.	.	.	.	.	.	.	.	.	.	.	.	.	16gg#\	.
.	.	.	.	.	.	.	.	.	.	.	8g#/	.	16bn\	.
.	.	.	.	.	.	.	.	.	.	.	.	.	16gg#\JJ	.
4r	.	.	.	.	4r	.	.	.	.	.	8bn/L	.	16ee\LL	.
.	.	.	.	.	.	.	.	.	.	.	.	.	16gg#\	.
.	.	.	.	.	.	.	.	.	.	.	8g#/J	.	16b\	.
.	.	.	.	.	.	.	.	.	.	.	.	.	16gg#\JJ	.
4G\	.	2r	.	.	4G\	.	.	.	.	.	8r	.	16ee\LL	.
.	.	.	.	.	.	.	.	.	.	.	.	.	16ggn\	.
.	.	.	.	.	.	.	.	.	.	.	8gn/	.	16b-\	.
.	.	.	.	.	.	.	.	.	.	.	.	.	16gg\JJ	.
4r	.	.	.	.	4r	.	.	.	.	.	8b-/L	.	16ee\LL	.
.	.	.	.	.	.	.	.	.	.	.	.	.	16gg\	.
.	.	.	.	.	.	.	.	.	.	.	8g/J	.	16b-\	.
.	.	.	.	.	.	.	.	.	.	.	.	.	16gg\JJ	.
=46	=46	=46	=46	=46	=46	=46	=46	=46	=46	=46	=46	=46	=46	=46
4A\	.	2r	1r	.	4A\	.	1r	.	1r	.	8r	.	16cc#\LL	.
.	.	.	.	.	.	.	.	.	.	.	.	.	16gg\	.
.	.	.	.	.	.	.	.	.	.	.	8e/	.	16a\	.
.	.	.	.	.	.	.	.	.	.	.	.	.	16gg\JJ	.
4r	.	.	.	.	4r	.	.	.	.	.	8a/L	.	16cc#\LL	.
.	.	.	.	.	.	.	.	.	.	.	.	.	16gg\	.
.	.	.	.	.	.	.	.	.	.	.	8e/J	.	16a\	.
.	.	.	.	.	.	.	.	.	.	.	.	.	16gg\JJ	.
4D\	.	2r	.	.	4D\	.	.	.	.	.	8r	.	16dd\LL	.
.	.	.	.	.	.	.	.	.	.	.	.	.	16ff\	.
.	.	.	.	.	.	.	.	.	.	.	8f/	.	16a\	.
.	.	.	.	.	.	.	.	.	.	.	.	.	16ff\JJ	.
4r	.	.	.	.	4r	.	.	.	.	.	8a/L	.	16dd\LL	.
.	.	.	.	.	.	.	.	.	.	.	.	.	16ff\	.
.	.	.	.	.	.	.	.	.	.	.	8f/J	.	16a\	.
.	.	.	.	.	.	.	.	.	.	.	.	.	16ff\JJ	.
=47	=47	=47	=47	=47	=47	=47	=47	=47	=47	=47	=47	=47	=47	=47
4G\	.	2r	1r	.	4G\	.	1r	.	1r	.	8r	.	16dd\LL	.
.	.	.	.	.	.	.	.	.	.	.	.	.	16ff\	.
.	.	.	.	.	.	.	.	.	.	.	8f/	.	16b-\	.
.	.	.	.	.	.	.	.	.	.	.	.	.	16ff\JJ	.
4r	.	.	.	.	4r	.	.	.	.	.	8b-/L	.	16dd\LL	.
.	.	.	.	.	.	.	.	.	.	.	.	.	16ff\	.
.	.	.	.	.	.	.	.	.	.	.	8f/J	.	16b-\	.
.	.	.	.	.	.	.	.	.	.	.	.	.	16ff\JJ	.
4G\	.	2r	.	.	4G\	.	.	.	.	.	8r	.	16g\LL	.
.	.	.	.	.	.	.	.	.	.	.	.	.	16b-\	.
.	.	.	.	.	.	.	.	.	.	.	8b-\	.	16ff\	.
.	.	.	.	.	.	.	.	.	.	.	.	.	16b-\JJ	.
4r	.	.	.	.	4r	.	.	.	.	.	8dd\L	.	16g\LL	.
.	.	.	.	.	.	.	.	.	.	.	.	.	16b-\	.
.	.	.	.	.	.	.	.	.	.	.	8b-\J	.	16ff\	.
.	.	.	.	.	.	.	.	.	.	.	.	.	16b-\JJ	.
=48	=48	=48	=48	=48	=48	=48	=48	=48	=48	=48	=48	=48	=48	=48
4G\	.	2r	1r	.	4G\	.	1r	.	1r	.	8r	.	16g\LL	.
.	.	.	.	.	.	.	.	.	.	.	.	.	16b-\	.
.	.	.	.	.	.	.	.	.	.	.	8b-\	.	16ee\	.
.	.	.	.	.	.	.	.	.	.	.	.	.	16b-\JJ	.
4r	.	.	.	.	4r	.	.	.	.	.	8dd\L	.	16g\LL	.
.	.	.	.	.	.	.	.	.	.	.	.	.	16b-\	.
.	.	.	.	.	.	.	.	.	.	.	8b-\J	.	16ee\	.
.	.	.	.	.	.	.	.	.	.	.	.	.	16b-\JJ	.
8C\L	.	2r	.	.	8C\L	.	.	.	.	.	8e/L	.	16G\LL	.
.	.	.	.	.	.	.	.	.	.	.	.	.	16e\	.
8D\	.	.	.	.	8D\	.	.	.	.	.	8f/	.	16cc\	.
.	.	.	.	.	.	.	.	.	.	.	.	.	16bb-\JJ	.
8E\	.	.	.	.	8E\	.	.	.	.	.	8g/	.	16G\LL	.
.	.	.	.	.	.	.	.	.	.	.	.	.	16e\	.
8C\J	.	.	.	.	8C\J	.	.	.	.	.	8e/J	.	16cc\	.
.	.	.	.	.	.	.	.	.	.	.	.	.	16bb-\JJ	.
=49	=49	=49	=49	=49	=49	=49	=49	=49	=49	=49	=49	=49	=49	=49
8F\L	.	2r	1r	.	8F\L	.	1r	.	1r	.	8a\L	.	16f\LL	.
.	.	.	.	.	.	.	.	.	.	.	.	.	16cc\	.
8G\	.	.	.	.	8G\	.	.	.	.	.	8b-\	.	16aa\	.
.	.	.	.	.	.	.	.	.	.	.	.	.	16cc\JJ	.
8A\	.	.	.	.	8A\	.	.	.	.	.	8cc\	.	16f\LL	.
.	.	.	.	.	.	.	.	.	.	.	.	.	16cc\	.
8F\J	.	.	.	.	8F\J	.	.	.	.	.	8a\J	.	16aa\	.
.	.	.	.	.	.	.	.	.	.	.	.	.	16cc\JJ	.
8C\L	.	2r	.	.	8C\L	.	.	.	.	.	8e/L	.	16G\LL	.
.	.	.	.	.	.	.	.	.	.	.	.	.	16e\	.
8D\	.	.	.	.	8D\	.	.	.	.	.	8f/	.	16cc\	.
.	.	.	.	.	.	.	.	.	.	.	.	.	16bb-\JJ	.
8E\	.	.	.	.	8E\	.	.	.	.	.	8g/	.	16G\LL	.
.	.	.	.	.	.	.	.	.	.	.	.	.	16e\	.
8C\J	.	.	.	.	8C\J	.	.	.	.	.	8e/J	.	16cc\	.
.	.	.	.	.	.	.	.	.	.	.	.	.	16bb-\JJ	.
=50	=50	=50	=50	=50	=50	=50	=50	=50	=50	=50	=50	=50	=50	=50
*	*	*	*	*	*	*	*	*	*	*	*	*	*^	*
8F\L	f	2r	8F\L	.	8F\L	f	8a\L	f	8ff\L	f	8ff\L	.	4aa/	8f\ 8cc\	.
8G\	.	.	8G\	.	8G\	.	8b-\	.	8cc\	.	8cc\	.	.	8r	.
8A\	.	.	8A\	.	8A\	.	8cc\	.	8ff\	.	8ff\	.	8ff/L	2.r	f
8F\J	.	.	8F\J	.	8F\J	.	8a\J	.	8aa\J	.	8aa\J	.	8aa/J	.	.
8E\L	.	2r	8E\L	.	8E\L	.	8g\L	.	4ccc\	.	4ccc\	.	4ccc/	.	.
8C\	.	.	8C\	.	8C\	.	8e\	.	.	.	.	.	.	.	.
8c\	.	.	8c\	.	8c\	.	8e\	.	4ee\	.	4ee\	.	4ee/	.	.
8B-\J	.	.	8B-\J	.	8B-\J	.	8c\J	.	.	.	.	.	.	.	.
*	*	*	*	*	*	*	*	*	*	*	*	*	*v	*v	*
=51	=51	=51	=51	=51	=51	=51	=51	=51	=51	=51	=51	=51	=51	=51
8A\L	.	2r	8A\L	.	8A\L	.	8c\L	.	4.ff\	.	4.ff\	.	4.ff\	.
8F\	.	.	8F\	.	8F\	.	8A\	.	.	.	.	.	.	.
8A\	.	.	8A\	.	8A\	.	8c\	.	.	.	.	.	.	.
8B-\J	.	.	8B-\J	.	8B-\J	.	8d\J	.	16ee\LL	.	16ee\LL	.	16ee\LL	.
.	.	.	.	.	.	.	.	.	16dd\JJ	.	16dd\JJ	.	16dd\JJ	.
8E\L	.	2r	8E\L	.	8E\L	.	8G\L	.	8cc\L	.	8cc\L	.	8cc\L	.
8D\	.	.	8D\	.	8D\	.	8f\	.	8b-\	.	8b-\	.	8b-\	.
8E\	.	.	8E\	.	8E\	.	8g\	.	8a\	.	8a\	.	8a\	.
8C\J	.	.	8C\J	.	8C\J	.	8e\J	.	8g\J	.	8g\J	.	8g\J	.
=52	=52	=52	=52	=52	=52	=52	=52	=52	=52	=52	=52	=52	=52	=52
8F\L	.	2r	8F\L	.	8F\L	.	8c\L	.	8a/L	.	8a/L	.	8a/L	.
8C\	.	.	8C\	.	8C\	.	8e\	.	16g/L	.	16g/L	.	16g/L	.
.	.	.	.	.	.	.	.	.	16f/JJ	.	16f/JJ	.	16f/JJ	.
8F\	.	.	8F\	.	8F\	.	8c\	.	8a/L	.	8a/L	.	8a/L	.
8G\J	.	.	8G\J	.	8G\J	.	8g\J	.	8b-/J	.	8b-/J	.	8b-/J	.
8A\L	.	2r	8A\L	.	8A\L	.	8f\L	.	8cc\L	.	8cc\L	.	8cc\L	.
8G\	.	.	8G\	.	8G\	.	8e\	.	16dd\L	.	16dd\L	.	16dd\L	.
.	.	.	.	.	.	.	.	.	16ee\JJ	.	16ee\JJ	.	16ee\JJ	.
8F\	.	.	8F\	.	8F\	.	(8d\	.	8ff\L	.	8ff\L	.	8ff\L	.
8E\J	.	.	8E\J	.	8E\J	.	8c\J)	.	8gg\J	.	8gg\J	.	8gg\J	.
=53	=53	=53	=53	=53	=53	=53	=53	=53	=53	=53	=53	=53	=53	=53
8F\L	.	2r	8F\L	.	8F\L	.	8c\L	.	8aa\L	.	8aa\L	.	8aa\L	.
8A\	.	.	8A\	.	8A\	.	8cc\	.	16gg\L	.	16gg\L	.	16gg\L	.
.	.	.	.	.	.	.	.	.	16ff\JJ	.	16ff\JJ	.	16ff\JJ	.
8F\	.	.	8F\	.	8F\	.	8a\	.	8aa\L	.	8aa\L	.	8aa\L	.
8G\J	.	.	8G\J	.	8G\J	.	8d\J	.	8bb-\J	.	8bb-\J	.	8bb-\J	.
8C/L	.	2r	8C/L	.	8C/L	.	8e\L	.	4ccc\	.	4ccc\	.	4ccc\	.
8D/	.	.	8D/	.	8D/	.	8f\	.	.	.	.	.	.	.
8C/	.	.	8C/	.	8C/	.	8e\	.	8.r	.	8.r	.	8.r	.
8BB-/J	.	.	8BB-/J	.	8BB-/J	.	8d\J	.	.	.	.	.	.	.
.	.	.	.	.	.	.	.	.	16cc\	.	16cc\	.	16cc\	.
=54	=54	=54	=54	=54	=54	=54	=54	=54	=54	=54	=54	=54	=54	=54
8AA/L	.	2r	8AA/L	.	8AA/L	.	8c\L	.	4cc\	.	4cc\	.	4cc\	.
8BB-/	.	.	8BB-/	.	8BB-/	.	8a\	.	.	.	.	.	.	.
8C/	.	.	8C/	.	8C/	.	8e\	.	16dd\LL	.	16dd\LL	.	16dd\LL	.
.	.	.	.	.	.	.	.	.	16ee\	.	16ee\	.	16ee\	.
8BB-/J	.	.	8BB-/J	.	8BB-/J	.	8d\J	.	16ff\	.	16ff\	.	16ff\	.
.	.	.	.	.	.	.	.	.	16gg\JJ	.	16gg\JJ	.	16gg\JJ	.
8AA/L	.	2r	8AA/L	.	8AA/L	.	8c\L	.	8aa\L	.	8aa\L	.	8aa\L	.
8BB-/	.	.	8BB-/	.	8BB-/	.	8d\	.	8ff\J	.	8ff\J	.	8ff\J	.
8C/	.	.	8C/	.	8C/	.	8e\	.	4ee\	.	4ee\	.	4ee\	.
8AA/J	.	.	8AA/J	.	8AA/J	.	8c\J	.	.	.	.	.	.	.
=55	=55	=55	=55	=55	=55	=55	=55	=55	=55	=55	=55	=55	=55	=55
8BB-/L	.	2r	8BB-/L	.	8BB-/L	.	8f\L	.	8dd\L	.	8dd\L	.	8dd\L	.
8C/	.	.	8C/	.	8C/	.	8e\	.	8b-\J	.	8b-\J	.	8b-\J	.
8D/	.	.	8D/	.	8D/	.	8f\	.	8.B-/L	.	8.B-/L	.	8.B-/L	.
8C/J	.	.	8C/J	.	8C/J	.	8e\J	.	.	.	.	.	.	.
.	.	.	.	.	.	.	.	.	16dd/Jk	.	16dd/Jk	.	16dd/Jk	.
8BB-/L	.	2r	8BB-/L	.	8BB-/L	.	8d\L	.	4dd\	.	4dd\	.	4dd\	.
8C/	.	.	8C/	.	8C/	.	8e\	.	.	.	.	.	.	.
8D/	.	.	8D/	.	8D/	.	8f\	.	16ee\LL	.	16ee\LL	.	16ee\LL	.
.	.	.	.	.	.	.	.	.	16ff\	.	16ff\	.	16ff\	.
8C/J	.	.	8C/J	.	8C/J	.	8e\J	.	16gg\	.	16gg\	.	16gg\	.
.	.	.	.	.	.	.	.	.	16aa\JJ	.	16aa\JJ	.	16aa\JJ	.
=56	=56	=56	=56	=56	=56	=56	=56	=56	=56	=56	=56	=56	=56	=56
8BB-/L	.	2r	8BB-/L	.	8BB-/L	.	8d\L	.	8bb-\L	.	8bb-\L	.	8bb-\L	.
8C/	.	.	8C/	.	8C/	.	8e\	.	8gg\J	.	8gg\J	.	8gg\J	.
8D/	.	.	8D/	.	8D/	.	8f\	.	4ff\	.	4ff\	.	4ff\	.
8BBn/J	.	.	8BBn/J	.	8BBn/J	.	8d\J	.	.	.	.	.	.	.
8C\L	.	2r	8C\L	.	8C\L	.	8g\L	.	8ee\L	.	8ee\L	.	8ee\L	.
8D\	.	.	8D\	.	8D\	.	8f\	.	8cc\J	.	8cc\J	.	8cc\J	.
8E\	.	.	8E\	.	8E\	.	8g\	.	8.c/L	.	8.c/L	.	8.c/L	.
8D\J	.	.	8D\J	.	8D\J	.	8f\J	.	.	.	.	.	.	.
.	.	.	.	.	.	.	.	.	16ee/Jk	.	16ee/Jk	.	16ee/Jk	.
=57	=57	=57	=57	=57	=57	=57	=57	=57	=57	=57	=57	=57	=57	=57
8C\L	.	2r	8C\L	.	8C\L	.	8e\L	.	4ee\	.	4ee\	.	4ee\	.
8D\	.	.	8D\	.	8D\	.	8f\	.	.	.	.	.	.	.
8E\	.	.	8E\	.	8E\	.	8g\	.	16ff\LL	.	16ff\LL	.	16ff\LL	.
.	.	.	.	.	.	.	.	.	16gg\	.	16gg\	.	16gg\	.
8D\J	.	.	8D\J	.	8D\J	.	8f\J	.	16aa\	.	16aa\	.	16aa\	.
.	.	.	.	.	.	.	.	.	16bb-\JJ	.	16bb-\JJ	.	16bb-\JJ	.
8C\L	.	2r	8C\L	.	8C\L	.	8e\L	.	8ccc\L	.	(8ccc\L	.	8ccc\L	.
8D\	.	.	8D\	.	8D\	.	8f\	.	8aa\J	.	8aa\J)	.	8aa\J	.
8E\	.	.	8E\	.	8E\	.	8g\	.	4gg\	.	4gg\	.	4gg\	.
8C#\J	.	.	8C#\J	.	8C#\J	.	8e\J	.	.	.	.	.	.	.
=58	=58	=58	=58	=58	=58	=58	=58	=58	=58	=58	=58	=58	=58	=58
8D\L	.	2r	8D\L	.	8D\L	.	8a\L	.	8ff\L	.	8ff\L	.	8ff\L	.
8E\	.	.	8E\	.	8E\	.	8g\	.	8cc\J	.	8cc\J	.	8cc\J	.
8F\	.	.	8F\	.	8F\	.	8a\	.	4f/	.	4f/	.	4f/	.
8D\J	.	.	8D\J	.	8D\J	.	8f\J	.	.	.	.	.	.	.
8F\L	.	2r	8F\L	.	8F\L	.	4.a\	.	4.cc\	.	4.cc\	.	4.cc\	.
8E\	.	.	8E\	.	8E\	.	.	.	.	.	.	.	.	.
8F\	.	.	8F\	.	8F\	.	.	.	.	.	.	.	.	.
8FF\J	.	.	8FF\J	.	8FF\J	.	8b-\	.	8dd\	.	8dd\	.	8dd\	.
=59	=59	=59	=59	=59	=59	=59	=59	=59	=59	=59	=59	=59	=59	=59
8F\L	.	2r	8F\L	.	8F\L	.	4.a\	.	4.cc\	.	4.cc\	.	4.cc\	.
8E\	.	.	8E\	.	8E\	.	.	.	.	.	.	.	.	.
8F\	.	.	8F\	.	8F\	.	.	.	.	.	.	.	.	.
8FF\J	.	.	8FF\J	.	8FF\J	.	8cc\	.	8ff\	.	8ff\	.	8ff\	.
8c\L	.	2r	8c\L	.	8c\L	.	4.g\	.	4.ee\	.	4.ee\	.	4.ee\	.
8B-\	.	.	8B-\	.	8B-\	.	.	.	.	.	.	.	.	.
8c\	.	.	8c\	.	8c\	.	.	.	.	.	.	.	.	.
8C\J	.	.	8C\J	.	8C\J	.	8f\	.	8aa\	.	8aa\	.	8aa\	.
=60	=60	=60	=60	=60	=60	=60	=60	=60	=60	=60	=60	=60	=60	=60
8c\L	.	2r	8c\L	.	8c\L	.	4.e\	.	4.gg\	.	4.gg\	.	4.gg\	.
8B-\	.	.	8B-\	.	8B-\	.	.	.	.	.	.	.	.	.
8c\	.	.	8c\	.	8c\	.	.	.	.	.	.	.	.	.
8C\J	.	.	8C\J	.	8C\J	.	8e\	.	8ccc\	.	8ccc\	.	8ccc\	.
8F\L	.	2r	8F\L	.	8F\L	.	8c\L	.	8aa\L	.	8aa\L	.	8aa\L	.
8AA\	.	.	8AA\	.	8AA\	.	8c\	.	8ff\	.	8ff\	.	8ff\	.
8BB-\	.	.	8BB-\	.	8BB-\	.	8d\	.	8gg\	.	8aa\	.	8gg\	.
8C\J	.	.	8C\J	.	8C\J	.	8g\J	.	8ee\J	.	8ee\J	.	8ee\J	.
=61	=61	=61	=61	=61	=61	=61	=61	=61	=61	=61	=61	=61	=61	=61
8G\L	.	2r	8G\L	.	8G\L	.	8e\L	.	4.b-\	.	4.b-\	.	4.b-\	.
8F\	.	.	8F\	.	8F\	.	8f\	.	.	.	.	.	.	.
8E\	.	.	8E\	.	8E\	.	8g\	.	.	.	.	.	.	.
8C\J	.	.	8C\J	.	8C\J	.	8e\J	.	16a/LL	.	16a/LL	.	16a/LL	.
.	.	.	.	.	.	.	.	.	16g/JJ	.	16g/JJ	.	16g/JJ	.
8F\L	.	2r	8F\L	.	8F\L	.	8c\L	.	16f/LL	.	16f/LL	.	16f/LL	.
.	.	.	.	.	.	.	.	.	16g/	.	16g/	.	16g/	.
8G\	.	.	8G\	.	8G\	.	8B-\	.	16a/	.	16a/	.	16a/	.
.	.	.	.	.	.	.	.	.	16b-/JJ	.	16b-/JJ	.	16b-/JJ	.
8A\	.	.	8A\	.	8A\	.	8A\	.	8cc\L	.	8cc\L	.	8cc\L	.
8F\J	.	.	8F\J	.	8F\J	.	8a\J	.	8ff\J	.	8ff\J	.	8ff\J	.
=62	=62	=62	=62	=62	=62	=62	=62	=62	=62	=62	=62	=62	=62	=62
8G\L	.	2r	8G\L	.	8G\L	.	8e\L	.	4.b-\	.	4.b-\	.	4.b-\	.
8F\	.	.	8F\	.	8F\	.	8f\	.	.	.	.	.	.	.
8E\	.	.	8E\	.	8E\	.	8g\	.	.	.	.	.	.	.
8C\J	.	.	8C\J	.	8C\J	.	8e\J	.	16a/LL	.	16a/LL	.	16a/LL	.
.	.	.	.	.	.	.	.	.	16g/JJ	.	16g/JJ	.	16g/JJ	.
8F\L	.	2r	8F\L	.	8F\L	.	8c\L	.	16f/LL	.	16f/LL	.	16f/LL	.
.	.	.	.	.	.	.	.	.	16g/	.	16g/	.	16g/	.
8G\	.	.	8G\	.	8G\	.	8B-\	.	16a/	.	16a/	.	16a/	.
.	.	.	.	.	.	.	.	.	16b-/JJ	.	16b-/JJ	.	16b-/JJ	.
8A\	.	.	8A\	.	8A\	.	8A\	.	8cc\L	.	8cc\L	.	8cc\L	.
8F\J	.	.	8F\J	.	8F\J	.	8a\J	.	8ff\J	.	8ff\J	.	8ff\J	.
=63	=63	=63	=63	=63	=63	=63	=63	=63	=63	=63	=63	=63	=63	=63
4BB-/	.	2r	4BB-/	.	4BB-/	.	16b-\LL	.	16dd\LL	.	16dd\LL	.	16dd\LL	.
.	.	.	.	.	.	.	16a\	.	16cc\	.	16cc\	.	16cc\	.
.	.	.	.	.	.	.	16g\	.	16b-\	.	16b-\	.	16b-\	.
.	.	.	.	.	.	.	16f\JJ	.	16a\JJ	.	16a\JJ	.	16a\JJ	.
4C/	.	.	4C/	.	4C/	.	8e\L	.	8g\L	.	8g\L	.	8g\L	.
.	.	.	.	.	.	.	8g\J	.	8ee\J	.	8ee\J	.	8ee\J	.
4F\	.	2r	4F\	.	4F\	.	4a\	.	4ff\	.	4ff\	.	24ff\LL	.
.	.	.	.	.	.	.	.	.	.	.	.	.	24cc\	.
.	.	.	.	.	.	.	.	.	.	.	.	.	24b-\J	.
.	.	.	.	.	.	.	.	.	.	.	.	.	24a\L	.
.	.	.	.	.	.	.	.	.	.	.	.	.	24b-\	.
.	.	.	.	.	.	.	.	.	.	.	.	.	24cc\JJ	.
4E\	.	.	4r	.	4E\	.	4r	.	4r	.	4r	.	24ff\LL	.
.	.	.	.	.	.	.	.	.	.	.	.	.	24cc\	.
.	.	.	.	.	.	.	.	.	.	.	.	.	24b-\J	.
.	.	.	.	.	.	.	.	.	.	.	.	.	24a\L	.
.	.	.	.	.	.	.	.	.	.	.	.	.	24b-\	.
.	.	.	.	.	.	.	.	.	.	.	.	.	24cc\JJ	.
=64	=64	=64	=64	=64	=64	=64	=64	=64	=64	=64	=64	=64	=64	=64
*	*	*	*	*	*	*	*k[]	*k[]	*	*	*	*	*	*
4D\	.	2r	1r	.	4D\	.	1r	.	1r	.	1r	.	24b-/LL	.
.	.	.	.	.	.	.	.	.	.	.	.	.	24f/	.
.	.	.	.	.	.	.	.	.	.	.	.	.	24e/J	.
.	.	.	.	.	.	.	.	.	.	.	.	.	24d/L	.
.	.	.	.	.	.	.	.	.	.	.	.	.	24e/	.
.	.	.	.	.	.	.	.	.	.	.	.	.	24f/JJ	.
4r	.	.	.	.	4r	.	.	.	.	.	.	.	24b-/LL	.
.	.	.	.	.	.	.	.	.	.	.	.	.	24f/	.
.	.	.	.	.	.	.	.	.	.	.	.	.	24e/J	.
.	.	.	.	.	.	.	.	.	.	.	.	.	24d/L	.
.	.	.	.	.	.	.	.	.	.	.	.	.	24e/	.
.	.	.	.	.	.	.	.	.	.	.	.	.	24f/JJ	.
4G\	.	2r	.	.	4G\	.	.	.	.	.	.	.	24gg\LL	.
.	.	.	.	.	.	.	.	.	.	.	.	.	24dd\	.
.	.	.	.	.	.	.	.	.	.	.	.	.	24cc\J	.
.	.	.	.	.	.	.	.	.	.	.	.	.	24b-\L	.
.	.	.	.	.	.	.	.	.	.	.	.	.	24cc\	.
.	.	.	.	.	.	.	.	.	.	.	.	.	24dd\JJ	.
4F\	.	.	.	.	4F\	.	.	.	.	.	.	.	24gg\LL	.
.	.	.	.	.	.	.	.	.	.	.	.	.	24dd\	.
.	.	.	.	.	.	.	.	.	.	.	.	.	24cc\J	.
.	.	.	.	.	.	.	.	.	.	.	.	.	24b-\L	.
.	.	.	.	.	.	.	.	.	.	.	.	.	24cc\	.
.	.	.	.	.	.	.	.	.	.	.	.	.	24dd\JJ	.
=65	=65	=65	=65	=65	=65	=65	=65	=65	=65	=65	=65	=65	=65	=65
4E\	.	2r	1r	.	4E\	.	1r	.	1r	.	1r	.	24cc/LL	.
.	.	.	.	.	.	.	.	.	.	.	.	.	24g/	.
.	.	.	.	.	.	.	.	.	.	.	.	.	24f/	.
.	.	.	.	.	.	.	.	.	.	.	.	.	24e/	.
.	.	.	.	.	.	.	.	.	.	.	.	.	24f/	.
.	.	.	.	.	.	.	.	.	.	.	.	.	24g/JJ	.
4r	.	.	.	.	4r	.	.	.	.	.	.	.	24cc/LL	.
.	.	.	.	.	.	.	.	.	.	.	.	.	24g/	.
.	.	.	.	.	.	.	.	.	.	.	.	.	24f/	.
.	.	.	.	.	.	.	.	.	.	.	.	.	24e/	.
.	.	.	.	.	.	.	.	.	.	.	.	.	24f/	.
.	.	.	.	.	.	.	.	.	.	.	.	.	24g/JJ	.
4A\	.	2r	.	.	4A\	.	.	.	.	.	.	.	24aa\LL	.
.	.	.	.	.	.	.	.	.	.	.	.	.	24ee\	.
.	.	.	.	.	.	.	.	.	.	.	.	.	24dd\J	.
.	.	.	.	.	.	.	.	.	.	.	.	.	24cc#\L	.
.	.	.	.	.	.	.	.	.	.	.	.	.	24dd\	.
.	.	.	.	.	.	.	.	.	.	.	.	.	24ee\JJ	.
4G\	.	.	.	.	4G\	.	.	.	.	.	.	.	24aa\LL	.
.	.	.	.	.	.	.	.	.	.	.	.	.	24ee\	.
.	.	.	.	.	.	.	.	.	.	.	.	.	24dd\	.
.	.	.	.	.	.	.	.	.	.	.	.	.	24cc#\	.
.	.	.	.	.	.	.	.	.	.	.	.	.	24dd\	.
.	.	.	.	.	.	.	.	.	.	.	.	.	24ee\JJ	.
=66	=66	=66	=66	=66	=66	=66	=66	=66	=66	=66	=66	=66	=66	=66
*	*	*	*	*	*	*	*k[b-]	*k[b-]	*	*	*	*	*	*
4F\	.	2r	1r	.	4F\	.	1r	.	1r	.	1r	.	24dd\LL	.
.	.	.	.	.	.	.	.	.	.	.	.	.	24a\	.
.	.	.	.	.	.	.	.	.	.	.	.	.	24g\J	.
.	.	.	.	.	.	.	.	.	.	.	.	.	24f\L	.
.	.	.	.	.	.	.	.	.	.	.	.	.	24g\	.
.	.	.	.	.	.	.	.	.	.	.	.	.	24a\JJ	.
4r	.	.	.	.	4r	.	.	.	.	.	.	.	24dd\LL	.
.	.	.	.	.	.	.	.	.	.	.	.	.	24a\	.
.	.	.	.	.	.	.	.	.	.	.	.	.	24g\J	.
.	.	.	.	.	.	.	.	.	.	.	.	.	24f\L	.
.	.	.	.	.	.	.	.	.	.	.	.	.	24g\	.
.	.	.	.	.	.	.	.	.	.	.	.	.	24a\JJ	.
4B-\	.	2r	.	.	4B-\	.	.	.	.	.	.	.	24bb-\LL	.
.	.	.	.	.	.	.	.	.	.	.	.	.	24ff\	.
.	.	.	.	.	.	.	.	.	.	.	.	.	24ee\	.
.	.	.	.	.	.	.	.	.	.	.	.	.	24dd\	.
.	.	.	.	.	.	.	.	.	.	.	.	.	24ee\	.
.	.	.	.	.	.	.	.	.	.	.	.	.	24ff\JJ	.
4A\	.	.	.	.	4A\	.	.	.	.	.	.	.	24bb-\LL	.
.	.	.	.	.	.	.	.	.	.	.	.	.	24ff\	.
.	.	.	.	.	.	.	.	.	.	.	.	.	24ee\J	.
.	.	.	.	.	.	.	.	.	.	.	.	.	24dd\L	.
.	.	.	.	.	.	.	.	.	.	.	.	.	24ee\	.
.	.	.	.	.	.	.	.	.	.	.	.	.	24ff\JJ	.
=67	=67	=67	=67	=67	=67	=67	=67	=67	=67	=67	=67	=67	=67	=67
4G\	.	2r	1r	.	4G\	.	1r	.	1r	.	1r	.	24ee\LL	.
.	.	.	.	.	.	.	.	.	.	.	.	.	24b-\	.
.	.	.	.	.	.	.	.	.	.	.	.	.	24a\J	.
.	.	.	.	.	.	.	.	.	.	.	.	.	24g\L	.
.	.	.	.	.	.	.	.	.	.	.	.	.	24a\	.
.	.	.	.	.	.	.	.	.	.	.	.	.	24b-\JJ	.
4r	.	.	.	.	4r	.	.	.	.	.	.	.	24ee\LL	.
.	.	.	.	.	.	.	.	.	.	.	.	.	24b-\	.
.	.	.	.	.	.	.	.	.	.	.	.	.	24a\	.
.	.	.	.	.	.	.	.	.	.	.	.	.	24g\	.
.	.	.	.	.	.	.	.	.	.	.	.	.	24a\	.
.	.	.	.	.	.	.	.	.	.	.	.	.	24b-\JJ	.
8AA/L	.	2r	.	.	8AA/L	.	.	.	.	.	.	.	16c#/LL	.
.	.	.	.	.	.	.	.	.	.	.	.	.	16b-/	.
8BBn/	.	.	.	.	8BBn/	.	.	.	.	.	.	.	16ee/	.
.	.	.	.	.	.	.	.	.	.	.	.	.	16gg/JJ	.
8C#/	.	.	.	.	8C#/	.	.	.	.	.	.	.	16c#/LL	.
.	.	.	.	.	.	.	.	.	.	.	.	.	16b-/	.
8AA/J	.	.	.	.	8AA/J	.	.	.	.	.	.	.	16ee/	.
.	.	.	.	.	.	.	.	.	.	.	.	.	16gg/JJ	.
=68	=68	=68	=68	=68	=68	=68	=68	=68	=68	=68	=68	=68	=68	=68
8D\L	.	2r	1r	.	8D\L	.	1r	.	1r	.	1r	.	16d\LL	.
.	.	.	.	.	.	.	.	.	.	.	.	.	16dd\	.
8E\	.	.	.	.	8E\	.	.	.	.	.	.	.	16aa\	.
.	.	.	.	.	.	.	.	.	.	.	.	.	16ddd\JJ	.
8F\	.	.	.	.	8F\	.	.	.	.	.	.	.	16d\LL	.
.	.	.	.	.	.	.	.	.	.	.	.	.	16dd\	.
8D\J	.	.	.	.	8D\J	.	.	.	.	.	.	.	16aa\	.
.	.	.	.	.	.	.	.	.	.	.	.	.	16ddd\JJ	.
8GG/L	.	2r	.	.	8GG/L	.	.	.	.	.	.	.	16d\LL	.
.	.	.	.	.	.	.	.	.	.	.	.	.	16dd\	.
8AA/	.	.	.	.	8AA/	.	.	.	.	.	.	.	16ccc\	.
.	.	.	.	.	.	.	.	.	.	.	.	.	16ddd\JJ	.
8BB-/	.	.	.	.	8BB-/	.	.	.	.	.	.	.	16d\LL	.
.	.	.	.	.	.	.	.	.	.	.	.	.	16dd\	.
8GG/J	.	.	.	.	8GG/J	.	.	.	.	.	.	.	16bb-\	.
.	.	.	.	.	.	.	.	.	.	.	.	.	16ddd\JJ	.
=69	=69	=69	=69	=69	=69	=69	=69	=69	=69	=69	=69	=69	=69	=69
8D\L	.	2r	1r	.	8D\L	.	1r	.	1r	.	1r	.	16d\LL	.
.	.	.	.	.	.	.	.	.	.	.	.	.	16dd\	.
8E\	.	.	.	.	8E\	.	.	.	.	.	.	.	16aa\	.
.	.	.	.	.	.	.	.	.	.	.	.	.	16ddd\JJ	.
8F\	.	.	.	.	8F\	.	.	.	.	.	.	.	16d\LL	.
.	.	.	.	.	.	.	.	.	.	.	.	.	16dd\	.
8D\J	.	.	.	.	8D\J	.	.	.	.	.	.	.	16aa\	.
.	.	.	.	.	.	.	.	.	.	.	.	.	16ddd\JJ	.
8GG/L	.	2r	.	.	8GG/L	.	.	.	.	.	.	.	16d\LL	.
.	.	.	.	.	.	.	.	.	.	.	.	.	16dd\	.
8AA/	.	.	.	.	8AA/	.	.	.	.	.	.	.	16bb-\	.
.	.	.	.	.	.	.	.	.	.	.	.	.	16ddd\JJ	.
8BB-/	.	.	.	.	8BB-/	.	.	.	.	.	.	.	16d\LL	.
.	.	.	.	.	.	.	.	.	.	.	.	.	16dd\	.
8GG/J	.	.	.	.	8GG/J	.	.	.	.	.	.	.	16bb-\	.
.	.	.	.	.	.	.	.	.	.	.	.	.	16ddd\JJ	.
=70	=70	=70	=70	=70	=70	=70	=70	=70	=70	=70	=70	=70	=70	=70
*	*	*	*	*	*	*	*	*	*	*	*	*	*^	*
8D\L	f	2r	8D\L	f	8D\L	f	8f\L	.	8dd\L	f	8dd\L	f	4aa/	8d\ 8dd\	.
8E\	.	.	8E\	.	8E\	.	8g\	.	8a\	.	8a\	.	.	8r	.
*	*	*	*	*	*	*	*	*	*	*	*	*	*v	*v	*
8F\	.	.	8F\	.	8F\	.	8a\	.	8dd\	.	8dd\	.	8dd\L	f
8D\J	.	.	8D\J	.	8D\J	.	8f\J	.	8ff\J	.	8ff\J	.	8ff\J	.
8C#\L	.	2r	8C#\L	.	8C#\L	.	8e\L	.	4aa\	.	4aa\	.	4aa\	.
8AA\	.	.	8AA\	.	8AA\	.	8c#\	.	.	.	.	.	.	.
8A\	.	.	8A\	.	8A\	.	8e\	.	4cc#\	.	4cc#\	.	4cc#\	.
8G\J	.	.	8G\J	.	8G\J	.	8e\J	.	.	.	.	.	.	.
=71	=71	=71	=71	=71	=71	=71	=71	=71	=71	=71	=71	=71	=71	=71
8F\L	.	2r	8F\L	.	8F\L	.	8a\L	.	4.dd\	.	4.dd\	.	4.dd\	.
8D\	.	.	8D\	.	8D\	.	8g\	.	.	.	.	.	.	.
8F\	.	.	8F\	.	8F\	.	8a\	.	.	.	.	.	.	.
8G\J	.	.	8G\J	.	8G\J	.	8b-\J	.	16cc#\LL	.	16cc#\LL	.	16cc#\LL	.
.	.	.	.	.	.	.	.	.	16b-\JJ	.	16b-\JJ	.	16b-\JJ	.
8C#/L	.	2r	8C#/L	.	8C#/L	.	8e\L	.	8a/L	.	8a/L	.	8a/L	.
8AA/	.	.	8AA/	.	8AA/	.	8c#\	.	8g/	.	8g/	.	8g/	.
8D/	.	.	8D/	.	8D/	.	8A\	.	8f/	.	8f/	.	8f/	.
8C#/J	.	.	8C#/J	.	8C#/J	.	8A\J	.	8e/J	.	8e/J	.	8e/J	.
=72	=72	=72	=72	=72	=72	=72	=72	=72	=72	=72	=72	=72	=72	=72
8D\L	.	2r	8D\L	.	8D\L	.	8A\L	.	8f/L	.	8f/L	.	8f/L	.
8AA\	.	.	8AA\	.	8AA\	.	8A\	.	16e/L	.	16e/L	.	16e/L	.
.	.	.	.	.	.	.	.	.	16d/JJ	.	16d/JJ	.	16d/JJ	.
8D\	.	.	8D\	.	8D\	.	8f\	.	8f/L	.	8f/L	.	8f/L	.
8E\J	.	.	8E\J	.	8E\J	.	8e\J	.	8g/J	.	8g/J	.	8g/J	.
8F\L	.	2r	8F\L	.	8F\L	.	8d\L	.	8a\L	.	8a\L	.	8a\L	.
8G\	.	.	8G\	.	8G\	.	8d\	.	16bn\L	.	16bn\L	.	16bn\L	.
.	.	.	.	.	.	.	.	.	16cc#\JJ	.	16cc#\JJ	.	16cc#\JJ	.
8F\	.	.	8F\	.	8F\	.	8a\	.	8dd\L	.	8dd\L	.	8dd\L	.
8E\J	.	.	8E\J	.	8E\J	.	8g\J	.	8ee\J	.	8ee\J	.	8ee\J	.
=73	=73	=73	=73	=73	=73	=73	=73	=73	=73	=73	=73	=73	=73	=73
8D\L	.	2r	8D\L	.	8D\L	.	8a\L	.	8ff\L	.	8ff\L	.	8ff\L	.
8F\	.	.	8F\	.	8F\	.	8a\	.	16ee\L	.	16ee\L	.	16ee\L	.
.	.	.	.	.	.	.	.	.	16dd\JJ	.	16dd\JJ	.	16dd\JJ	.
8D\	.	.	8D\	.	8D\	.	8d\	.	8ff\L	.	8ff\L	.	8ff\L	.
8E\J	.	.	8E\J	.	8E\J	.	8d\J	.	8gg#\J	.	8gg#\J	.	8gg#\J	.
4AA/	.	2r	4AA/	.	4AA/	.	4c#\	.	4aa\	.	4aa\	.	16aa\LL	.
.	.	.	.	.	.	.	.	.	.	.	.	.	16cc#\	.
.	.	.	.	.	.	.	.	.	.	.	.	.	16e\	.
.	.	.	.	.	.	.	.	.	.	.	.	.	16bb-\JJ	.
4r	.	.	4r	.	4r	.	4r	.	4r	.	4r	.	16aa\LL	.
.	.	.	.	.	.	.	.	.	.	.	.	.	16cc#\	.
.	.	.	.	.	.	.	.	.	.	.	.	.	16e\	.
.	.	.	.	.	.	.	.	.	.	.	.	.	16bb-\JJ	.
=74	=74	=74	=74	=74	=74	=74	=74	=74	=74	=74	=74	=74	=74	=74
2r	.	2r	1r	.	2r	.	1r	.	1r	.	1r	.	16aa\LL	.
.	.	.	.	.	.	.	.	.	.	.	.	.	16cc#\	.
.	.	.	.	.	.	.	.	.	.	.	.	.	16e\	.
.	.	.	.	.	.	.	.	.	.	.	.	.	16bb-\JJ	.
.	.	.	.	.	.	.	.	.	.	.	.	.	16aa\LL	.
.	.	.	.	.	.	.	.	.	.	.	.	.	16gg\	.
.	.	.	.	.	.	.	.	.	.	.	.	.	16ff\	.
.	.	.	.	.	.	.	.	.	.	.	.	.	16ee\JJ	.
4F\	.	2r	.	.	4F\	.	.	.	.	.	.	.	16dd/LL	.
.	.	.	.	.	.	.	.	.	.	.	.	.	16f/	.
.	.	.	.	.	.	.	.	.	.	.	.	.	16A/	.
.	.	.	.	.	.	.	.	.	.	.	.	.	16ee/JJ	.
4r	.	.	.	.	4r	.	.	.	.	.	.	.	16dd/LL	.
.	.	.	.	.	.	.	.	.	.	.	.	.	16f/	.
.	.	.	.	.	.	.	.	.	.	.	.	.	16A/	.
.	.	.	.	.	.	.	.	.	.	.	.	.	16ee/JJ	.
=75	=75	=75	=75	=75	=75	=75	=75	=75	=75	=75	=75	=75	=75	=75
2r	.	2r	1r	.	2r	.	1r	.	1r	.	1r	.	16dd/LL	.
.	.	.	.	.	.	.	.	.	.	.	.	.	16f/	.
.	.	.	.	.	.	.	.	.	.	.	.	.	16A/	.
.	.	.	.	.	.	.	.	.	.	.	.	.	16ee/JJ	.
.	.	.	.	.	.	.	.	.	.	.	.	.	16dd\LL	.
.	.	.	.	.	.	.	.	.	.	.	.	.	16cc\	.
.	.	.	.	.	.	.	.	.	.	.	.	.	16b-\	.
.	.	.	.	.	.	.	.	.	.	.	.	.	16a\JJ	.
4B-\	.	2r	.	.	4B-\	.	.	.	.	.	.	.	16gg\LL	.
.	.	.	.	.	.	.	.	.	.	.	.	.	16b-\	.
.	.	.	.	.	.	.	.	.	.	.	.	.	16d\	.
.	.	.	.	.	.	.	.	.	.	.	.	.	16aa\JJ	.
4r	.	.	.	.	4r	.	.	.	.	.	.	.	16gg\LL	.
.	.	.	.	.	.	.	.	.	.	.	.	.	16b-\	.
.	.	.	.	.	.	.	.	.	.	.	.	.	16d\	.
.	.	.	.	.	.	.	.	.	.	.	.	.	16aa\JJ	.
=76	=76	=76	=76	=76	=76	=76	=76	=76	=76	=76	=76	=76	=76	=76
2r	.	2r	1r	.	2r	.	1r	.	1r	.	1r	.	16gg\LL	.
.	.	.	.	.	.	.	.	.	.	.	.	.	16b-\	.
.	.	.	.	.	.	.	.	.	.	.	.	.	16d\	.
.	.	.	.	.	.	.	.	.	.	.	.	.	16aa\JJ	.
.	.	.	.	.	.	.	.	.	.	.	.	.	16gg\LL	.
.	.	.	.	.	.	.	.	.	.	.	.	.	16ff\	.
.	.	.	.	.	.	.	.	.	.	.	.	.	16ee\	.
.	.	.	.	.	.	.	.	.	.	.	.	.	16dd\JJ	.
4E\	.	2r	.	.	4E\	.	.	.	.	.	.	.	16cc/LL	.
.	.	.	.	.	.	.	.	.	.	.	.	.	16e/	.
.	.	.	.	.	.	.	.	.	.	.	.	.	16G/	.
.	.	.	.	.	.	.	.	.	.	.	.	.	16dd/JJ	.
4r	.	.	.	.	4r	.	.	.	.	.	.	.	16cc/LL	.
.	.	.	.	.	.	.	.	.	.	.	.	.	16e/	.
.	.	.	.	.	.	.	.	.	.	.	.	.	16G/	.
.	.	.	.	.	.	.	.	.	.	.	.	.	16dd/JJ	.
=77	=77	=77	=77	=77	=77	=77	=77	=77	=77	=77	=77	=77	=77	=77
2r	.	2r	1r	.	2r	.	1r	.	1r	.	1r	.	16cc/LL	.
.	.	.	.	.	.	.	.	.	.	.	.	.	16e/	.
.	.	.	.	.	.	.	.	.	.	.	.	.	16G/	.
.	.	.	.	.	.	.	.	.	.	.	.	.	16dd/JJ	.
.	.	.	.	.	.	.	.	.	.	.	.	.	16cc/LL	.
.	.	.	.	.	.	.	.	.	.	.	.	.	16b-/	.
.	.	.	.	.	.	.	.	.	.	.	.	.	16a/	.
.	.	.	.	.	.	.	.	.	.	.	.	.	16g/JJ	.
4F\	.	2r	.	.	4F\	.	.	.	.	.	.	.	16a/LL	.
.	.	.	.	.	.	.	.	.	.	.	.	.	16f/	.
.	.	.	.	.	.	.	.	.	.	.	.	.	16c/	.
.	.	.	.	.	.	.	.	.	.	.	.	.	16b-/JJ	.
4r	.	.	.	.	4r	.	.	.	.	.	.	.	16a/LL	.
.	.	.	.	.	.	.	.	.	.	.	.	.	16f/	.
.	.	.	.	.	.	.	.	.	.	.	.	.	16c/	.
.	.	.	.	.	.	.	.	.	.	.	.	.	16b-/JJ	.
=78	=78	=78	=78	=78	=78	=78	=78	=78	=78	=78	=78	=78	=78	=78
2r	.	2r	1r	.	2r	.	1r	.	1r	.	1r	.	16a/LL	.
.	.	.	.	.	.	.	.	.	.	.	.	.	16f/	.
.	.	.	.	.	.	.	.	.	.	.	.	.	16c/	.
.	.	.	.	.	.	.	.	.	.	.	.	.	16b-/JJ	.
.	.	.	.	.	.	.	.	.	.	.	.	.	16a/LL	.
.	.	.	.	.	.	.	.	.	.	.	.	.	16b-/	.
.	.	.	.	.	.	.	.	.	.	.	.	.	16cc/	.
.	.	.	.	.	.	.	.	.	.	.	.	.	16a/JJ	.
4G\	.	2r	.	.	4G\	.	.	.	.	.	.	.	16b-/LL	.
.	.	.	.	.	.	.	.	.	.	.	.	.	16d/	.
.	.	.	.	.	.	.	.	.	.	.	.	.	16G/	.
.	.	.	.	.	.	.	.	.	.	.	.	.	16cc/JJ	.
4r	.	.	.	.	4r	.	.	.	.	.	.	.	16b-/LL	.
.	.	.	.	.	.	.	.	.	.	.	.	.	16d/	.
.	.	.	.	.	.	.	.	.	.	.	.	.	16G/	.
.	.	.	.	.	.	.	.	.	.	.	.	.	16cc/JJ	.
=79	=79	=79	=79	=79	=79	=79	=79	=79	=79	=79	=79	=79	=79	=79
2r	.	2r	1r	.	2r	.	1r	.	1r	.	1r	.	16b-/LL	.
.	.	.	.	.	.	.	.	.	.	.	.	.	16d/	.
.	.	.	.	.	.	.	.	.	.	.	.	.	16G/	.
.	.	.	.	.	.	.	.	.	.	.	.	.	16cc/JJ	.
.	.	.	.	.	.	.	.	.	.	.	.	.	16b-\LL	.
.	.	.	.	.	.	.	.	.	.	.	.	.	16cc\	.
.	.	.	.	.	.	.	.	.	.	.	.	.	16dd\	.
.	.	.	.	.	.	.	.	.	.	.	.	.	16cc\JJ	.
4G\	.	2r	.	.	4G\	.	.	.	.	.	.	.	16bn/LL	.
.	.	.	.	.	.	.	.	.	.	.	.	.	16d/	.
.	.	.	.	.	.	.	.	.	.	.	.	.	16G/	.
.	.	.	.	.	.	.	.	.	.	.	.	.	16cc/JJ	.
4r	.	.	.	.	4r	.	.	.	.	.	.	.	16b/LL	.
.	.	.	.	.	.	.	.	.	.	.	.	.	16d/	.
.	.	.	.	.	.	.	.	.	.	.	.	.	16G/	.
.	.	.	.	.	.	.	.	.	.	.	.	.	16cc/JJ	.
=80	=80	=80	=80	=80	=80	=80	=80	=80	=80	=80	=80	=80	=80	=80
2r	.	2r	1r	.	2r	.	1r	.	1r	.	1r	.	16bn/LL	.
.	.	.	.	.	.	.	.	.	.	.	.	.	16d/	.
.	.	.	.	.	.	.	.	.	.	.	.	.	16G/	.
.	.	.	.	.	.	.	.	.	.	.	.	.	16cc/JJ	.
.	.	.	.	.	.	.	.	.	.	.	.	.	16b\LL	.
.	.	.	.	.	.	.	.	.	.	.	.	.	16cc\	.
.	.	.	.	.	.	.	.	.	.	.	.	.	16dd\	.
.	.	.	.	.	.	.	.	.	.	.	.	.	16b\JJ	.
4A\	.	2r	.	.	4A\	.	.	.	.	.	.	.	16cc#/LL	.
.	.	.	.	.	.	.	.	.	.	.	.	.	16e/	.
.	.	.	.	.	.	.	.	.	.	.	.	.	16G/	.
.	.	.	.	.	.	.	.	.	.	.	.	.	16dd/JJ	.
4r	.	.	.	.	4r	.	.	.	.	.	.	.	16cc#/LL	.
.	.	.	.	.	.	.	.	.	.	.	.	.	16e/	.
.	.	.	.	.	.	.	.	.	.	.	.	.	16G/	.
.	.	.	.	.	.	.	.	.	.	.	.	.	16dd/JJ	.
=81	=81	=81	=81	=81	=81	=81	=81	=81	=81	=81	=81	=81	=81	=81
2r	.	2r	1r	.	2r	.	1r	.	1r	.	1r	.	16cc#/LL	.
.	.	.	.	.	.	.	.	.	.	.	.	.	16e/	.
.	.	.	.	.	.	.	.	.	.	.	.	.	16G/	.
.	.	.	.	.	.	.	.	.	.	.	.	.	16dd/JJ	.
.	.	.	.	.	.	.	.	.	.	.	.	.	16cc#\LL	.
.	.	.	.	.	.	.	.	.	.	.	.	.	16dd\	.
.	.	.	.	.	.	.	.	.	.	.	.	.	16ee\	.
.	.	.	.	.	.	.	.	.	.	.	.	.	16cc#\JJ	.
4D\	.	2r	.	.	4D\	.	.	.	.	.	.	.	16dd\LL	.
.	.	.	.	.	.	.	.	.	.	.	.	.	16a\	.
.	.	.	.	.	.	.	.	.	.	.	.	.	16dd\	.
.	.	.	.	.	.	.	.	.	.	.	.	.	16ee\JJ	.
4r	.	.	.	.	4r	.	.	.	.	.	.	.	16ff\LL	.
.	.	.	.	.	.	.	.	.	.	.	.	.	16dd\	.
.	.	.	.	.	.	.	.	.	.	.	.	.	16ff\	.
.	.	.	.	.	.	.	.	.	.	.	.	.	16gg\JJ	.
=82	=82	=82	=82	=82	=82	=82	=82	=82	=82	=82	=82	=82	=82	=82
2r	.	2r	1r	.	2r	.	1r	.	1r	.	1r	.	16aa\LL	.
.	.	.	.	.	.	.	.	.	.	.	.	.	16ff\	.
.	.	.	.	.	.	.	.	.	.	.	.	.	16aa\	.
.	.	.	.	.	.	.	.	.	.	.	.	.	16bbn\JJ	.
.	.	.	.	.	.	.	.	.	.	.	.	.	16ccc#\LL	.
.	.	.	.	.	.	.	.	.	.	.	.	.	16aa\	.
.	.	.	.	.	.	.	.	.	.	.	.	.	16bb\	.
.	.	.	.	.	.	.	.	.	.	.	.	.	16ccc#\JJ	.
4G\	.	2r	.	.	4G\	.	.	.	.	.	.	.	16ddd\LL	.
.	.	.	.	.	.	.	.	.	.	.	.	.	16dd\	.
.	.	.	.	.	.	.	.	.	.	.	.	.	16b-\	.
.	.	.	.	.	.	.	.	.	.	.	.	.	16dd\JJ	.
4G\	.	.	.	.	4G\	.	.	.	.	.	.	.	16ddd\LL	.
.	.	.	.	.	.	.	.	.	.	.	.	.	16dd\	.
.	.	.	.	.	.	.	.	.	.	.	.	.	16b-\	.
.	.	.	.	.	.	.	.	.	.	.	.	.	16dd\JJ	.
=83	=83	=83	=83	=83	=83	=83	=83	=83	=83	=83	=83	=83	=83	=83
4F\	.	2r	1r	.	4F\	.	1r	.	1r	.	1r	.	16ddd\LL	.
.	.	.	.	.	.	.	.	.	.	.	.	.	16dd\	.
.	.	.	.	.	.	.	.	.	.	.	.	.	16a\	.
.	.	.	.	.	.	.	.	.	.	.	.	.	16dd\JJ	.
4F\	.	.	.	.	4F\	.	.	.	.	.	.	.	16ddd\LL	.
.	.	.	.	.	.	.	.	.	.	.	.	.	16dd\	.
.	.	.	.	.	.	.	.	.	.	.	.	.	16a\	.
.	.	.	.	.	.	.	.	.	.	.	.	.	16dd\JJ	.
4G\	.	2r	.	.	4G\	.	.	.	.	.	.	.	16ddd\LL	.
.	.	.	.	.	.	.	.	.	.	.	.	.	16dd\	.
.	.	.	.	.	.	.	.	.	.	.	.	.	16b-\	.
.	.	.	.	.	.	.	.	.	.	.	.	.	16dd\JJ	.
4G\	.	.	.	.	4G\	.	.	.	.	.	.	.	16ddd\LL	.
.	.	.	.	.	.	.	.	.	.	.	.	.	16dd\	.
.	.	.	.	.	.	.	.	.	.	.	.	.	16b-\	.
.	.	.	.	.	.	.	.	.	.	.	.	.	16dd\JJ	.
=84	=84	=84	=84	=84	=84	=84	=84	=84	=84	=84	=84	=84	=84	=84
4F\	.	2r	1r	.	4F\	.	1r	.	1r	.	1r	.	16ddd\LL	.
.	.	.	.	.	.	.	.	.	.	.	.	.	16dd\	.
.	.	.	.	.	.	.	.	.	.	.	.	.	16a\	.
.	.	.	.	.	.	.	.	.	.	.	.	.	16dd\JJ	.
4F\	.	.	.	.	4F\	.	.	.	.	.	.	.	16ddd\LL	.
.	.	.	.	.	.	.	.	.	.	.	.	.	16dd\	.
.	.	.	.	.	.	.	.	.	.	.	.	.	16a\	.
.	.	.	.	.	.	.	.	.	.	.	.	.	16dd\JJ	.
4E\	.	2r	.	.	4E\	.	.	.	.	.	.	.	16ddd\LL	.
.	.	.	.	.	.	.	.	.	.	.	.	.	16dd\	.
.	.	.	.	.	.	.	.	.	.	.	.	.	16g#\	.
.	.	.	.	.	.	.	.	.	.	.	.	.	16dd\JJ	.
4E\	.	.	.	.	4E\	.	.	.	.	.	.	.	16ddd\LL	.
.	.	.	.	.	.	.	.	.	.	.	.	.	16dd\	.
.	.	.	.	.	.	.	.	.	.	.	.	.	16g#\	.
.	.	.	.	.	.	.	.	.	.	.	.	.	16dd\JJ	.
=85	=85	=85	=85	=85	=85	=85	=85	=85	=85	=85	=85	=85	=85	=85
4A\	.	2r	1r	.	4A\	.	1r	.	1r	.	1r	.	16ddd\LL	.
.	.	.	.	.	.	.	.	.	.	.	.	.	16ee\	.
.	.	.	.	.	.	.	.	.	.	.	.	.	16a\	.
.	.	.	.	.	.	.	.	.	.	.	.	.	16ee\JJ	.
4A\	.	.	.	.	4A\	.	.	.	.	.	.	.	16ddd\LL	.
.	.	.	.	.	.	.	.	.	.	.	.	.	16ee\	.
.	.	.	.	.	.	.	.	.	.	.	.	.	16a\	.
.	.	.	.	.	.	.	.	.	.	.	.	.	16ee\JJ	.
4AA/	.	2r	.	.	4AA/	.	.	.	.	.	.	.	16ccc#\LL	.
.	.	.	.	.	.	.	.	.	.	.	.	.	16ee\	.
.	.	.	.	.	.	.	.	.	.	.	.	.	16a\	.
.	.	.	.	.	.	.	.	.	.	.	.	.	16ee\JJ	.
4AA/	.	.	.	.	4AA/	.	.	.	.	.	.	.	16ccc#\LL	.
.	.	.	.	.	.	.	.	.	.	.	.	.	16ee\	.
.	.	.	.	.	.	.	.	.	.	.	.	.	16a\	.
.	.	.	.	.	.	.	.	.	.	.	.	.	16ee\JJ	.
=86	=86	=86	=86	=86	=86	=86	=86	=86	=86	=86	=86	=86	=86	=86
*	*	*	*	*	*	*	*	*	*	*	*	*	*^	*
8D\L	f	2r	8D\L	f	8D\L	f	8f\L	f	4dd\	f	4dd\	f	4ddd/	8a\ 8ff\	.
8E\	.	.	8E\	.	8E\	.	8g\	.	.	.	.	.	.	8r	.
8F\	.	.	8F\	.	8F\	.	8a\	.	8.r	.	8.r	.	4r	8.r	.
8E\J	.	.	8E\J	.	8E\J	.	8g\J	.	.	.	.	.	.	.	.
.	.	.	.	.	.	.	.	.	16dd\	.	16dd\	.	.	16dd\	f
8D\L	.	2r	8D\L	.	8D\L	.	8f\L	.	4dd\	.	4dd\	.	2r	4dd\	.
8F\	.	.	8F\	.	8F\	.	8a\	.	.	.	.	.	.	.	.
8E\	.	.	8E\	.	8E\	.	8g\	.	16ee\LL	.	16ee\LL	.	.	16ee\LL	.
.	.	.	.	.	.	.	.	.	16ff\	.	16ff\	.	.	16ff\	.
8D\J	.	.	8D\J	.	8D\J	.	8f\J	.	16gg\	.	16gg\	.	.	16gg\	.
.	.	.	.	.	.	.	.	.	16aa\JJ	.	16aa\JJ	.	.	16aa\JJ	.
*	*	*	*	*	*	*	*	*	*	*	*	*	*v	*v	*
=87	=87	=87	=87	=87	=87	=87	=87	=87	=87	=87	=87	=87	=87	=87
8G\L	.	2r	8G\L	.	8G\L	.	8d\L	.	8bb-\L	.	8bb-\L	.	8bb-\L	.
8A\	.	.	8A\	.	8A\	.	8c\	.	8gg\J	.	8gg\J	.	8gg\J	.
8Bn\	.	.	8Bn\	.	8Bn\	.	8d\	.	4ff\	.	4ff\	.	4ff\	.
8G\J	.	.	8G\J	.	8G\J	.	8Bn\J	.	.	.	.	.	.	.
8C\L	.	2r	8C\L	.	8C\L	.	8G\L	.	8ee\L	.	8ee\L	.	8ee\L	.
8D\	.	.	8D\	.	8D\	.	8f\	.	8cc\J	.	8cc\J	.	8cc\J	.
8E\	.	.	8E\	.	8E\	.	8g\	.	8.c/L	.	8.c/L	.	8.c/L	.
8D\J	.	.	8D\J	.	8D\J	.	8f\J	.	.	.	.	.	.	.
.	.	.	.	.	.	.	.	.	16cc/Jk	.	16cc/Jk	.	16cc/Jk	.
=88	=88	=88	=88	=88	=88	=88	=88	=88	=88	=88	=88	=88	=88	=88
8C\L	.	2r	8C\L	.	8C\L	.	8e\L	.	4cc\	.	4cc\	.	4cc\	.
8E\	.	.	8E\	.	8E\	.	8g\	.	.	.	.	.	.	.
8D\	.	.	8D\	.	8D\	.	8f\	.	16dd\LL	.	16dd\LL	.	16dd\LL	.
.	.	.	.	.	.	.	.	.	16ee\	.	16ee\	.	16ee\	.
8C\J	.	.	8C\J	.	8C\J	.	8e\J	.	16ff\	.	16ff\	.	16ff\	.
.	.	.	.	.	.	.	.	.	16gg\JJ	.	16gg\JJ	.	16gg\JJ	.
8F\L	.	2r	8F\L	.	8F\L	.	8c\L	.	8aa\L	.	8aa\L	.	8aa\L	.
8G\	.	.	8G\	.	8G\	.	8B-\	.	8ff\J	.	8ff\J	.	8ff\J	.
8A\	.	.	8A\	.	8A\	.	8c\	.	4ee\	.	4ee\	.	4ee\	.
8F\J	.	.	8F\J	.	8F\J	.	8A\J	.	.	.	.	.	.	.
=89	=89	=89	=89	=89	=89	=89	=89	=89	=89	=89	=89	=89	=89	=89
8BB-/L	.	2r	8BB-/L	.	8BB-/L	.	8F\L	.	8dd\L	.	8dd\L	.	8dd\L	.
8C/	.	.	8C/	.	8C/	.	8e\	.	8b-\J	.	8b-\J	.	8b-\J	.
8D/	.	.	8D/	.	8D/	.	8f\	.	8.B-/L	.	8.B-/L	.	8.B-/L	.
8C/J	.	.	8C/J	.	8C/J	.	8e\J	.	.	.	.	.	.	.
.	.	.	.	.	.	.	.	.	16b-/Jk	.	16b-/Jk	.	16b-/Jk	.
8BB-/L	.	2r	8BB-/L	.	8BB-/L	.	8d\L	.	4b-\	.	4b-\	.	4b-\	.
8D/	.	.	8D/	.	8D/	.	8f\	.	.	.	.	.	.	.
8C/	.	.	8C/	.	8C/	.	8e\	.	16cc\LL	.	16cc\LL	.	16cc\LL	.
.	.	.	.	.	.	.	.	.	16dd\	.	16dd\	.	16dd\	.
8BB-/J	.	.	8BB-/J	.	8BB-/J	.	8d\J	.	16ee\	.	16ee\	.	16ee\	.
.	.	.	.	.	.	.	.	.	16ff\JJ	.	16ff\JJ	.	16ff\JJ	.
=90	=90	=90	=90	=90	=90	=90	=90	=90	=90	=90	=90	=90	=90	=90
8E\L	.	2r	8E\L	.	8E\L	.	8B-\L	.	8gg\L	.	8gg\L	.	8gg\L	.
8F\	.	.	8F\	.	8F\	.	8a\	.	8ee\J	.	8ee\J	.	8ee\J	.
8G\	.	.	8G\	.	8G\	.	8b-\	.	4dd\	.	4dd\	.	4dd\	.
8G#\J	.	.	8G#\J	.	8G#\J	.	8bn\J	.	.	.	.	.	.	.
8A\L	.	2r	8A\L	.	8A\L	.	4.e\	.	4.cc#\	.	4.cc#\	.	4.cc#\	.
8G#\	.	.	8G#\	.	8G#\	.	.	.	.	.	.	.	.	.
8A\	.	.	8A\	.	8A\	.	.	.	.	.	.	.	.	.
8D\J	.	.	8D\J	.	8D\J	.	8f\	.	8dd\	.	8dd\	.	8dd\	.
=91	=91	=91	=91	=91	=91	=91	=91	=91	=91	=91	=91	=91	=91	=91
8A\L	.	2r	8A\L	.	8A\L	.	4.e\	.	4.cc#\	.	4.cc#\	.	4.cc#\	.
8G#\	.	.	8G#\	.	8G#\	.	.	.	.	.	.	.	.	.
8A\	.	.	8A\	.	8A\	.	.	.	.	.	.	.	.	.
8D\J	.	.	8D\J	.	8D\J	.	8f\	.	8dd\	.	8dd\	.	8dd\	.
8d\L	.	2r	8d\L	.	8d\L	.	4.a\	.	4.ff#\	.	4.ff#\	.	4.ff#\	.
8c#\	.	.	8c#\	.	8c#\	.	.	.	.	.	.	.	.	.
8d\	.	.	8d\	.	8d\	.	.	.	.	.	.	.	.	.
8D\J	.	.	8D\J	.	8D\J	.	8f\	.	8dd\	.	8dd\	.	8dd\	.
=92	=92	=92	=92	=92	=92	=92	=92	=92	=92	=92	=92	=92	=92	=92
8A\L	.	2r	8A\L	.	8A\L	.	4.e\	.	4.cc#\	.	4.cc#\	.	4.cc#\	.
8G#\	.	.	8G#\	.	8G#\	.	.	.	.	.	.	.	.	.
8A\	.	.	8A\	.	8A\	.	.	.	.	.	.	.	.	.
8D\J	.	.	8D\J	.	8D\J	.	8f\	.	8dd\	.	8dd\	.	8dd\	.
8e\L	.	2r	8e\L	.	8e\L	.	4.bn\	.	4.gg#\	.	4.gg#\	.	4.gg#\	.
8d\	.	.	8d\	.	8d\	.	.	.	.	.	.	.	.	.
8e\	.	.	8e\	.	8e\	.	.	.	.	.	.	.	.	.
8G#\J	.	.	8E\J	.	8E\J	.	8g#\	.	8dd\	.	8dd\	.	8dd\	.
=93	=93	=93	=93	=93	=93	=93	=93	=93	=93	=93	=93	=93	=93	=93
8A\L	.	2r	8A\L	.	8A\L	.	4.e\	.	4.cc#\	.	4.cc#\	.	4.cc#\	.
8G#\	.	.	8G#\	.	8G#\	.	.	.	.	.	.	.	.	.
8A\	.	.	8A\	.	8A\	.	.	.	.	.	.	.	.	.
8D\J	.	.	8D\J	.	8D\J	.	8f\	.	8dd\	.	8dd\	.	8dd\	.
4.Gn\	.	2r	4.Gn\	.	4.Gn\	.	4.d\	.	16bb-\LL	.	16bb-\LL	.	16bb-\LL	.
.	.	.	.	.	.	.	.	.	16aa\	.	16aa\	.	16aa\	.
.	.	.	.	.	.	.	.	.	16gg\	.	16gg\	.	16gg\	.
.	.	.	.	.	.	.	.	.	16ff\JJ	.	16ff\JJ	.	16ff\JJ	.
.	.	.	.	.	.	.	.	.	16ee\LL	.	16ee\LL	.	16ee\LL	.
.	.	.	.	.	.	.	.	.	16dd\	.	16dd\	.	16dd\	.
8G\	.	.	8G\	.	8G\	.	8d\	.	16cc#\	.	16cc#\	.	16cc#\	.
.	.	.	.	.	.	.	.	.	16bn\JJ	.	16bn\JJ	.	16bn\JJ	.
=94	=94	=94	=94	=94	=94	=94	=94	=94	=94	=94	=94	=94	=94	=94
8C#\L	.	2r	8C#\L	.	8C#\L	.	8e\L	.	16a/LL	.	16a/LL	.	16a/LL	.
.	.	.	.	.	.	.	.	.	16g/	.	16g/	.	16g/	.
8AA\	.	.	8AA\	.	8AA\	.	8c#\	.	16f/	.	16f/	.	16f/	.
.	.	.	.	.	.	.	.	.	16e/JJ	.	16e/JJ	.	16e/JJ	.
8D\	.	.	8D\	.	8D\	.	8A\	.	8d/L	.	8d/L	.	8d/L	.
8F\J	.	.	8F\J	.	8F\J	.	8a\J	.	8dd/J	.	8dd/J	.	8dd/J	.
8E\L	.	2r	8E\L	.	8E\L	.	8c#\L	.	4.g/	.	4.g/	.	4.g/	.
8D\	.	.	8D\	.	8D\	.	8f\	.	.	.	.	.	.	.
8C#\	.	.	8C#\	.	8C#\	.	8e\	.	.	.	.	.	.	.
8AA\J	.	.	8AA\J	.	8AA\J	.	8c#\J	.	16f/LL	.	16f/LL	.	16f/LL	.
.	.	.	.	.	.	.	.	.	16e/JJ	.	16e/JJ	.	16e/JJ	.
=95	=95	=95	=95	=95	=95	=95	=95	=95	=95	=95	=95	=95	=95	=95
8D\L	.	2r	8D\L	.	8D\L	.	4A/	.	16d/LL	.	16d/LL	.	16d/LL	.
.	.	.	.	.	.	.	.	.	16e/	.	16e/	.	16e/	.
8E\	.	.	8E\	.	8E\	.	.	.	16f/	.	16f/	.	16f/	.
.	.	.	.	.	.	.	.	.	16g/JJ	.	16g/JJ	.	16g/JJ	.
8F\	.	.	8F\	.	8F\	.	8d\L	.	8a\L	.	8a\L	.	8a\L	.
8D\J	.	.	8D\J	.	8D\J	.	8f\J	.	8dd\J	.	8dd\J	.	8dd\J	.
8E\L	.	2r	8E\L	.	8E\L	.	8c#\L	.	4.g/	.	4.g/	.	4.g/	.
8D\	.	.	8D\	.	8D\	.	8f\	.	.	.	.	.	.	.
8C#\	.	.	8C#\	.	8C#\	.	8e\	.	.	.	.	.	.	.
8AA\J	.	.	8AA\J	.	8AA\J	.	8c#\J	.	16f/LL	.	16f/LL	.	16f/LL	.
.	.	.	.	.	.	.	.	.	16e/JJ	.	16e/JJ	.	16e/JJ	.
=96	=96	=96	=96	=96	=96	=96	=96	=96	=96	=96	=96	=96	=96	=96
8D\L	.	2r	8D\L	.	8D\L	.	4A/	.	16d/LL	.	16d/LL	.	16d/LL	.
.	.	.	.	.	.	.	.	.	16e/	.	16e/	.	16e/	.
8E\	.	.	8E\	.	8E\	.	.	.	16f/	.	16f/	.	16f/	.
.	.	.	.	.	.	.	.	.	16g/JJ	.	16g/JJ	.	16g/JJ	.
8F\	.	.	8F\	.	8F\	.	8d\L	.	8a\L	.	8a\L	.	8a\L	.
8D\J	.	.	8D\J	.	8D\J	.	8f\J	.	8dd\J	.	8dd\J	.	8dd\J	.
4GG/	.	2r	4GG/	.	4GG/	.	16g\LL	.	16b-/LL	.	16b-/LL	.	16b-/LL	.
.	.	.	.	.	.	.	16f\	.	16a/	.	16a/	.	16a/	.
.	.	.	.	.	.	.	16e\	.	16g/	.	16g/	.	16g/	.
.	.	.	.	.	.	.	16d\JJ	.	16f/JJ	.	16f/JJ	.	16f/JJ	.
4AA/	.	.	4AA/	.	4AA/	.	8c#\L	.	8e/L	.	8e/L	.	8e/L	.
.	.	.	.	.	.	.	8e\J	.	8cc#/J	.	8cc#/J	.	8cc#/J	.
=97	=97	=97	=97	=97	=97	=97	=97	=97	=97	=97	=97	=97	=97	=97
1D;	.	2r	1D;	.	1D;	.	1f;	.	1dd;	.	1dd;	.	1dd;	.
.	.	2r	.	.	.	.	.	.	.	.	.	.	.	.
==	==	==	==	==	==	==	==	==	==	==	==	==	==	==
*-	*-	*-	*-	*-	*-	*-	*-	*-	*-	*-	*-	*-	*-	*-
!!!ENC: Don Anthony
!!!END: 2005/06/10/
!!!ONB: Converted to Humdrum by Craig Sapp 2005/06/26/
